!!!!SEGMENT: pl-kj--bj-muz-9691-iii_sowinski-wojciech--reverie-au-bord-de-la-mer.krn
!!!cenid: 18xx:3589
!!!COM: Sowiński, Wojciech
!!!COM-rismID: pe30008543
!!!CDT: ~1803-1880/03/05
!!!CNT:
!!!OTL: Rêverie au bord de la mer
!!!PDT:
!!!AGN:
!!!SMS-siglum: PL-Kj
!!!SMS-shelfmark: BJ Muz. 9691 III
!!!SMS-shelfwork: W
!!!SMS-variant:
!!!SMS-altvar:
!!!NIFC-rismSourceID:
!!!NIFC-rismChildID:
!!!NIFC-islandoraID:
!!!URL-pdf-islandora:
!!!URL-scan: https://polona.pl/item/reverie-au-bord-de-la-mer-pour-le-piano,OTQwODY4Mjg/11 @EN{Scan on Polona} @PL{Skany w portalu Polona}
!!!ONB-nifc:
!!!AIN: 2 piano
!!!key:
**kern	**kern	**fing	**dynam
*part2	*part1	*part1	*part1
*staff2	*staff1	*	*
*Ipiano	*Ipiano	*	*
*I"Piano.	*I"Piano.	*	*
*I'pf	*I'pf	*	*
*clefF4	*clefG2	*	*
*k[f#c#g#]	*k[f#c#g#]	*	*
*F#:	*F#:	*	*
*M4/4	*M4/4	*	*
*met(c)	*met(c)	*	*
=1	=1	=1	=1
!	!LO:TX:a:t=Andante espressivo	!	!
12r	(2a#X 2f# 2c# 2A#X/	.	p
(12F#\L	.	.	.
12C#\J	.	.	.
12AA#X\L	.	.	.
12C#\	.	.	.
12FF#\J)	.	.	.
*Xtuplet	*	*	*
12r	4g# 4e#X 4c# 4B/	.	.
(12E#XL 12C#\	.	.	.
12GG#\J)	.	.	.
12r	4a# 4d#X 4c# 4A#/	.	.
(12F##XL 12D#X 12C#\	.	.	.
12FF##X\J)	.	.	.
=2	=2	=2	=2
12r	4b 4g# 4d#X 4B/	.	.
(12G#\L	.	.	.
12D#X\J	.	.	.
12E#X\L	8.cc#L 8.g# 8.c#/	.	.
12C#\	.	.	.
12EE#X\J)	.	.	.
.	16g#Jk 16c#/	.	.
12r	4a#X 4f# 4c#/	.	.
(12F#\L	.	.	.
12C#\J	.	.	.
12AA#X\L	4cc# 4a# 4f# 4c#/)	.	.
12C#\	.	.	.
12FF#\J)	.	.	.
=3	=3	=3	=3
*	*^	*	*
12r	(4g# 4e#X 4B/	2.ryy	.	.
(12E#X\L	.	.	.	.
12C##X\J	.	.	.	.
12AA#X\L	8.a#XL 8.e# 8.A#X/	.	.	.
12C##\	.	.	.	.
12CC##X\J)	.	.	.	.
.	16g#/Jk	.	.	.
12r	4f# 4d#X 4A#/	.	.	.
(12D#X\L	.	.	.	.
12AA#\J	.	.	.	.
12FF#\L	8.g#:/L	4d#: 4A#:\	.	.
12AA#\	.	.	.	.
12DD#X\J)	.	.	.	.
.	16g##X/Jk)	.	.	.
*	*v	*v	*	*
!!LO:LB:g=original
=4	=4	=4	=4
12r	4.a#X 4.c##X 4.A#X^^/	.	.
(<12C##X/L	.	.	.
12AA#X/J	.	.	.
12EE#X/L	.	.	.
12AA#/	.	.	.
.	16g#/LL	.	.
12CC##X/J)	.	.	.
.	16f#/JJ	.	.
12r	2e#X 2c## 2A#/	.	pp
(12AA#/L	.	.	.
12EE#/J	.	.	.
12CC##X/L	.	.	.
12EE#/	.	.	.
12AAA#X/J)	.	.	.
=5	=5	=5	=5
!	!LO:SIC:v:s=dodatkowo przy dźwięku c# kasownik	!	!
12FF#\L	2a#X: 2f#: 2cnX#X: 2A#X^:/	.	rfz
12A#X 12F#\	.	.	.
12F#J 12C#\	.	.	.
12C#L 12AA#X\	.	.	.
12F# 12C#\	.	.	.
12C#J 12AA# 12FF#\	.	.	.
12r	4g# 4e#X 4c# 4B/	.	.
12E#XL 12C#\	.	.	.
12C#J 12BB 12GG#\	.	.	.
12r	4a# 4d#X 4c# 4A#/	.	.
12F##XL 12D#X 12C#\	.	.	.
12FF##X\J	.	.	.
=6	=6	=6	=6
12r	4b 4g# 4d#X 4B/	.	.
12G#L 12D#X\	.	.	.
12D#J 12BB 12GG#\	.	.	.
12E#XL 12C#\	8.cc#:L 8.g#: 8.c#:/	.	.
12C# 12GG#\	.	.	.
12GG#J 12EE#X\	.	.	.
.	16g#/Jk	.	.
12r	(4a#X 4f# 4c#/	.	.
12F#L 12C#\	.	.	.
12A#XJ 12F#\	.	.	.
12c#L 12A#\	4ff#: 4cc#: 4a#: 4f#:\)	.	sf
12A# 12F#\	.	.	.
12F#J 12C#\	.	.	.
!!LO:LB:g=original
=7	=7	=7	=7
12GG#/	4g# 4f# 4d#X/	.	p <
12G#L 12D 12BB\	.	.	.
12BJ 12G# 12D\	.	.	.
12BL 12G# 12D\	8.a#X/L	.	.
12G# 12D\	.	.	.
12DJ 12BB\	.	.	.
.	16b/Jk	.	.
12CC#/	2a# 2f# 2c#/	.	[
12F#L 12C#\	.	.	.
12A#XJ 12F#\	.	.	.
12c#L 12A#\	.	.	.
12A# 12F#\	.	.	.
12F#J 12C#\	.	.	.
=8	=8	=8	=8
12CC#\L	8.g#L 8.e#X 8.B/	.	.
12E#X 12C#\	.	.	.
12G#J 12E#\	.	.	.
.	16f##X/Jk	.	.
12c#L 12G#\	8.g#L 8.e# 8.B/	.	.
12G# 12E#\	.	.	.
12E#J 12C#\	.	.	.
.	16a#X/Jk	.	.
12FF#\L	4f## 4c# 4A#X/	.	.
12A#X 12F# 12C#\	.	.	.
12c#J 12A# 12F#\	.	.	.
4f# 4c# 4A#^^\	4r	.	pp
=9	=9	=9	=9
12CC#/	4G#</	.	p f
!	!LO:TX:a:t=m.g.	!	!
12g#>L 12e>/	.	.	.
12cc#>J 12g#>/	.	.	.
!	!LO:TX:b:t=il canto sostenuto	!	!
12r>	8.G#</L	.	.
12g#>L 12e>/	.	.	.
12cc#>J 12g#> 12e>/	.	.	.
.	16G#</Jk	.	.
12r	4A#X</	.	.
12F#L 12C#\	.	.	.
12AA#X\J	.	.	.
12r	4B</	.	.
12E#XL 12C#\	.	.	.
12GG#\J	.	.	.
=10	=10	=10	=10
12FF#/	4c#</	.	.
12a#X>L 12f#>\	.	.	.
12cc#>J 12a#>\	.	.	.
12r>	8.d#X</L	.	.
12ee#X>L 12cc#> 12b>\	.	.	.
12cc#>J 12b> 12g#>\	.	.	.
.	16e#X</Jk	.	.
.	8qe#</	.	sf >
12r	4g#</	.	.
12A#XL 12F#\	.	.	.
12F#J 12C#\	.	.	.
12r	4f#</	.	]
12F#L 12C#\	.	.	.
12C#J 12AA#X\	.	.	.
!!LO:LB:g=original
=11	=11	=11	=11
12FF#/	4f#</	.	.
12cc#>L 12a#X>\	.	.	.
12ff#>J 12cc#>\	.	.	.
12r	8.e#X</L	.	.
12cc#>L 12b> 12g#>\	.	.	.
12ee#X>J 12cc#> 12b>\	.	.	.
.	16d#X</Jk	.	.
12r	4c#</	.	.
12C#L 12AA#X\	.	.	.
12F#J 12C#\	.	.	.
12A#XL 12F#\	4c#</	.	.
12F# 12C#\	.	.	.
12C#J 12AA#\	.	.	.
=12	=12	=12	=12
12GG#/	4B#X</	.	sf <
*	*ped	*	*
12b#X>L 12g#>\	.	.	.
12dd#X>J 12b#>\	.	.	.
12ff#>L 12dd#>\	8..d#X\L	.	[
12dd#> 12b#>\	.	.	.
12b#>J 12g#>\	.	.	.
*	*Xped	*	*
.	32f#\Jkk	.	.
12CC#/	(4f#\	.	.
12G#L 12E#X\	.	.	.
12c#J 12G#\	.	3	.
12g#L 12c#\	[4e#X\)	.	.
12c# 12G#\	.	2	.
12G#J 12E#\	.	.	.
=13	=13	=13	=13
*	*^	*	*
!	!LO:TX:b:t=Piu dolce	!	!	!
12BBB/	(4dd#X/	[4g# 4e#_ 4d\	.	.
12D#XL 12BB\	.	.	.	.
12G#J 12D#\	.	.	.	.
12BL 12G#\	8.ee#X^/L	8.g#]L 8.e#\]	.	.
12G# 12D#\	.	.	.	.
12D#J 12BB\	.	.	.	.
.	16dd#/Jk	16d\Jk	.	.
12AAA#X/	4cc#/)	4a#X 4f# 4c#\	.	.
12F#L 12C# 12AA#X\	.	.	.	.
12A#XJ 12F# 12C#\	.	.	.	.
12BBB/	4dd#/	4g# 4f# 4d\	.	.
12G#L 12D# 12BB\	.	.	.	.
12BJ 12G# 12D#\	.	.	.	.
=14	=14	=14	=14	=14
12CC#/	4a#X 4f#/	4c#\	.	.
12A#XL 12F# 12C#\	.	.	.	.
12c#J 12A# 12F#\	.	.	.	.
12CC#/	8.g#/L	4e#X 4B\	.	.
12G#L 12E#X 12C#\	.	.	.	.
12BJ 12G# 12E#\	.	.	.	.
.	16g##X/Jk	.	.	.
12CC##X/	2a# 2e#/	4A#X\	.	f >
12E#L 12C##X\	.	.	.	.
12A#J 12E#\	.	.	.	.
12c##XL 12A#\	.	4ryy	.	.
12A# 12E#\	.	.	.	.
12E#J 12C##\	.	.	.	.
*	*v	*v	*	*
!!LO:LB:g=original
=15	=15	=15	=15
12AAA#X/	(4a#X\	.	] p
12EL 12C##X\	.	.	.
12A#XJ 12E\	.	.	.
12c##XL 12A#\	24b\LL	.	<
.	24a#\	.	.
12A# 12E\	24g##X\	.	.
.	24a#\	.	.
12EJ 12C##\	24.ff#\	.	.
.	48ee#X\JJk)	.	[
12DD#X/	4ee#\	.	>
12F#L 12D#X\	.	.	.
12A#J 12F#\	.	.	.
12d#XL 12A#\	4dd\	.	]
12A# 12F#\	.	.	.
12F#J 12D#\	.	.	.
=16	=16	=16	=16
*	*ped	*	*
12BBB#X/	4g#/	.	.
12D#XL 12BB#X\	.	.	.
12G#J 12D#\	.	.	.
!	!LO:TX:b:i:t=delicato	!	!
*	*rscale:4	*	*
12B#XL 12G#\	(128g#\LLLLL	.	.
.	128a#X\	.	.
.	128g#\	.	.
.	128f##X\	.	.
.	128g#\	.	.
.	128b#X\	.	.
.	128dd#X\	.	.
.	128ff#\	.	.
.	128aa#X\	.	.
.	128gg#\	.	.
.	128ff#\	.	.
12G# 12D#\	.	.	.
.	128dd#\	.	.
.	128b#\	.	.
.	128g#\	.	.
.	128a#\	.	.
.	128g#\JJ	.	.
*	*rscale:1	*	*
*	*Xtuplet	*	*
.	48f##\	.	.
.	48g#\	.	.
12D#J 12BB#\	48b#\	.	.
.	48ee#X\	.	.
.	48.dd#\	.	.
.	96cc#\JJJk)	.	.
*	*Xped	*	*
12CC#/	2cc#\	.	.
12E#XL 12C#\	.	.	.
12G#J 12E#\	.	.	.
12c#L 12G#\	.	.	.
12G# 12E#\	.	.	.
12E#J 12C#\	.	.	.
=17	=17	=17	=17
*	*^	*	*
!	!LO:TX:b:t=espres.	!	!	!
12BBBn/	4ryy	4dd#X 4g# 4e#X^^\	.	.
12D#XL 12BB\	.	.	.	.
12G#J 12D#\	.	.	.	.
12BL 12G#\	8.ee#X/L	4g# 4e#\	.	.
12G# 12D#\	.	.	.	.
12D#J 12BB\	.	.	.	.
.	16dd#/Jk	.	.	.
12AAA#X/	2cc#/	2a#X 2f#\	.	.
12C#L 12AA#X/	.	.	.	.
12F# 12C#/	.	.	.	.
12A#X 12F#/	.	.	.	.
12F# 12C#/	.	.	.	.
12C#J 12AA#/	.	.	.	.
*	*v	*v	*	*
!!LO:LB:g=original
=18	=18	=18	=18
12BBB/	4ddn 4g# 4e#X\	.	pp
12DnL 12BB\	.	.	.
12G#J 12D\	.	.	.
12BL 12G#\	(12ee#XL 12g# 12e#\	.	.
12G# 12D\	12dd#X\	.	.
12DJ 12BB\	12ddn\J)	.	.
12AAA#X/	2cc# 2a#X 2gn 2en/	.	sf
12EL 12AA#X\	.	.	.
12Gn 12E\	.	.	.
12c# 12G 12E\	.	.	.
12G 12E\	.	.	.
12EJ 12AA#\	.	.	.
=19	=19	=19	=19
*	*^	*	*
12GGG#/	(12cc#/L	4g# 4d#X\	.	<
12D#XL 12BB\	12b/	.	.	.
12G# 12D#\	12a#X/J	.	.	.
12B 12G#\	12g#/L	4ryy	.	.
12G# 12D#\	12ee#X/	.	.	.
12D#J 12BB\	12dd#X/J)	.	.	[
12CC#/	4f# 4c# 4A#X/	2ryy	.	>
12F#L 12C#\	.	.	.	.
12A#XJ 12F#\	.	.	.	.
12CC#/	8.g#:L 8.e#X: 8.c#: 8.B:/	.	.	]
12G#L 12E#X 12C#\	.	.	.	.
12BJ 12G# 12E#\	.	.	.	.
.	16an/Jk	.	.	.
*	*v	*v	*	*
=20	=20	=20	=20
*	*ped	*	*
12Cn 12CCn/	4an: 4f#: 4d#X: 4cn: 4An:/	.	.
12F#L 12D#X 12C\	.	.	.
12An 12F# 12D#\	.	.	.
12cn 12A 12F#\	8.ccn:L 8.a: 8.f#: 8.d#:/	.	<
12A 12F# 12D#\	.	.	.
12F#J 12D# 12C\	.	.	.
.	16ff#Jk 16dd#X 16cc 16a/	.	.
12C 12CC/	2aa: 2ff#: 2dd#: 2cc: 2a:/	.	[[
12F#L 12D# 12C\	.	.	.
12A 12F# 12D#\	.	.	.
12c 12A 12F#\	.	.	.
12A 12F# 12D#\	.	.	.
12F#J 12D# 12C\	.	.	.
!!LO:PB:g=original
=21	=21	=21	=21
*	*ped	*	*
12DD/	4aa#X 4ff# 4cc# 4a#X\	.	ff
12A#XL 12F#\	.	.	.
12c# 12A#\	.	.	.
12f# 12c#\	2aa# 2ff# 2cc# 2a#\	.	.
12c# 12A#\	.	.	.
12A#J 12F#\	.	.	.
12DD/	.	.	.
12G#L 12D\	.	.	.
12B 12G#\	.	.	.
12e#X 12B 12G#\	(8.gg#L 8.ee#X 8.b\	.	.
12B 12G#\	.	.	.
12G#J 12D\	.	.	.
.	16aa#\Jk)	.	.
=22	=22	=22	=22
12DD#X/	8gg# 8ee#X 8b'\	.	.
12F#L 12D#X\	.	.	.
.	8r	.	.
12A#X 12F#\	.	.	.
12d#X 12A#\	4ff# 4dd 4a 4f#^^\	.	.
12A# 12F#\	.	.	.
12F#J 12D#\	.	.	.
12EE#X\L	4cc##X 4a 4c##X\	.	.
12A# 12G#\	.	.	.
12e#XJ 12A# 12G#\	.	.	.
12FF#\L	4dd 4a 4d#X\	.	.
12A# 12F#\	.	.	.
12f#J 12A# 12F#\	.	.	.
=23	=23	=23	=23
!	!	!	!LO:HP:t=decres
12BBB/	4g# 4f# 4d#X/	.	>
12D#XL 12BB\	.	.	.
12G# 12D#\	.	.	.
12B 12G#\	4dd#X 4g# 4f# 4d#\	.	.
12G# 12D#\	.	.	.
12D#J 12BB\	.	.	.
12CC#/	4cc#: 4a#X: 4f#: 4c#:/	.	.
12A#XL 12F# 12C#\	.	.	.
12c#J 12A# 12F#\	.	.	.
12CC#\L	8.g#L 8.e#X 8.B/	.	p
12G# 12E#X 12C#\	.	.	.
12BJ 12G# 12E#\	.	.	.
.	16a#/Jk	.	.
!!LO:LB:g=original
=24	=24	=24	=24
24FF#\LL	4f#/	.	p
24C#\	.	.	.
24A#X\	.	.	.
24C#\	.	.	.
24A#\	.	.	.
24C#\JJ	.	.	.
24FF#\LL	4r	.	.
24C#\	.	.	.
24A#\	.	.	.
24C#\	.	.	.
24A#\	.	.	.
24C#\JJ	.	.	.
24FF#\LL	2r	.	.
24C#\	.	.	.
24An\	.	.	.
24C#\	.	.	.
24A\	.	.	.
24C#\JJ	.	.	.
24FF#\LL	.	.	.
24C#\	.	.	.
24A\	.	.	.
24C#\	.	.	.
24A\	.	.	.
24C#\JJ	.	.	.
=25||	=25||	=25||	=25||
*k[f#c#g#]	*k[f#c#g#]	*	*
*M12/8	*M12/8	*	*
!	!LO:TX:a:t=Allegro appasionato	!	!
16FF#\LL	8r	.	p
16C#\	.	.	.
16A\	(8f#/L	.	.
16C#\	.	.	.
16FF#\	8g#/J)	.	.
16C#\JJ	.	.	.
16FF#\LL	8r	.	.
16C#\	.	.	.
!	!LO:TX:b:i:t=   con agitazione	!	!
16A\	(8a/L	.	.
16C#\	.	.	.
16FF#\	8b/J)	.	.
16C#\JJ	.	.	.
16FF#\LL	(8cc#\L	.	.
16C#\	.	.	.
16A\	8cc#\	.	.
16C#\	.	.	.
16FF#\	8ff#\J)	.	.
16C#\JJ	.	.	.
16GG#\LL	4ee\	.	sf >
16E\	.	.	.
16G#\	.	.	.
16E\	.	.	.
16GG#\	8b\	.	]
16E\JJ	.	.	.
!!LO:LB:g=original
=26	=26	=26	=26
!	!LO:TX:b:i:t=ten	!	!
16AA\LL	[4.cc#\	.	.
16C#\	.	.	.
16E\	.	.	.
16A\	.	.	.
16c#\	.	.	.
16A\JJ	.	.	.
16C#\LL	(8cc#\L]	.	.
16E#X\	.	.	.
16G#\	8g#\	.	.
16E#\	.	.	.
16C#\	8b\J)	.	.
16E#\JJ	.	.	.
16FF#\LL	8a\L	.	>
16C#\	.	.	.
16A\	16a\L	.	.
16C#\	16g#\J	.	.
16A\	8f#\J	.	]
16C#\JJ	.	.	.
16FF#\LL	8r	.	.
16C#\	.	.	.
16A\	(8f#/L	.	p
16C#\	.	.	.
16A\	8c#/J)	.	.
16C#\JJ	.	.	.
=27	=27	=27	=27
*^	*	*	*
16FF#/LL	2.ryy	8r	.	.
16C#/	.	.	.	.
16A/	.	(8f#/L	.	.
16C#/	.	.	.	.
16FF#/	.	8g#/J)	.	.
16C#/JJ	.	.	.	.
16FF#/LL	.	8a/	.	.
16C#/	.	.	.	.
16A/	.	(8a/L	.	<
16C#/	.	.	.	.
16FF#/	.	8b/J)	.	.
16C#/JJ	.	.	.	.
16FF#/LL	4.ryy	8.cc#^^\L	.	.
16C#/	.	.	.	.
16A/	.	.	.	.
16C#/	.	(16aa\L	.	.
16FF#/	.	16gg#\	.	.
16C#/JJ	.	16ff#\JJ	.	.
16GG#/LL	4GG#\	4ee#X\)	.	[ sf
16D/	.	.	.	.
16G#/	.	.	.	.
16D/JJ	.	.	.	.
16AA/LL	8AA\	[8ff#^^\	.	.
16A/JJ	.	.	.	.
!!LO:LB:g=original
=28	=28	=28	=28	=28
16AA#X/LL	4AA#\	8ff#\L]	.	sf
16F#/	.	.	.	.
16A#X/	.	8een\	.	.
16F#/	.	.	.	.
16AA#/	8AA#\	8cc#\J	.	.
16A#/JJ	.	.	.	.
16BB/LL	4BB\	8ee^^\L	.	>
16F#/	.	.	.	.
16B/	.	(16dd\L	.	.
16F#/	.	16cc#\J	.	.
16BB/	8BB\	8b\J)	.	]
16F#/JJ	.	.	.	.
16E#XLL 16C#\	4ryy	(8cc#\L	.	p
16G#\	.	.	.	.
16c#\	.	8g#\	.	.
16G#\	.	.	.	.
16C#\	8ryy	[8b\J	.	.
16G#\JJ	.	.	.	.
16F#\LL	4ryy	8b\L]	.	.
16An\	.	.	.	.
16c#\	.	16an\L	.	.
16A\	.	16g#\J	.	.
16F#\	8ryy	[8f#^^\J)	.	.
16A\JJ	.	.	.	.
*v	*v	*	*	*
=29	=29	=29	=29
16F#\LL	(>8f#/L]	.	<
16A\	.	.	.
16c#\	8f#/	.	.
16A\	.	.	.
16F#\	8g#/J	.	.
16A\JJ	.	.	.
16C#\LL	8e#X/L	.	.
16G#\	.	.	.
16c#\	8e#/	.	.
16G#\	.	.	.
16C#\	8f#/J	.	[
16G#\JJ	.	.	.
16C#\LL	8g#/L	.	>
16E#X\	.	.	.
16G#\	8cc#/	.	.
16B\	.	.	.
16E#\	8g#/J	.	.
16B\JJ	.	.	.
16F#\LL	8b/L	.	.
16A\	.	.	.
16c#\	16a/L	.	.
16A\	16g#/J	.	.
16F#\	[8f#/J)	.	]
16A\JJ	.	.	.
!!LO:LB:g=original
=30	=30	=30	=30
16F#\LL	(>8f#/L]	.	<
16A\	.	.	.
16c#\	8f#/	.	.
16A\	.	.	.
16F#\	8g#/J	.	.
16A\JJ	.	.	.
16C#\LL	8e#X/L	.	.
16G#\	.	.	.
16c#\	8e#/	.	.
16G#\	.	.	.
16C#\	8f#/J	.	[
16G#\JJ	.	.	.
16C#\LL	8g#/L	.	>
16E#X\	.	.	.
16G#\	8cc#/	.	.
16B\	.	.	.
16E#\	8g#/J	.	.
16B\JJ	.	.	.
16F#\LL	8b/L	.	.
16A\	.	.	.
16c#\	16a/L	.	.
16A\	16g#/J	.	.
16F#\	8f#/J)	.	]
16A\JJ	.	.	.
=31	=31	=31	=31
16FF#\LL	8r	.	.
16C#\	.	.	.
16F#\	(8f#/L	.	<
16A\	.	.	.
16F#\	8c#/J)	.	.
16C#\JJ	.	.	.
16FF#/LL	8r	.	.
16C#/	.	.	.
16A/	(8f#/L	.	.
16C#/	.	.	.
16A/	8g#/J)	.	.
16C#/JJ	.	.	.
16FF#/LL	8r	.	.
16C#/	.	.	.
16A/	(8a/L	.	.
16C#/	.	.	.
16A/	8b/J)	.	.
16C#/JJ	.	.	.
16FF#/LL	8.cc#^^\L	.	.
16C#/	.	.	.
16A/	.	.	.
16C#/	(16aa\L	.	.
16A/	16gg#\	.	.
16C#/JJ	16ff#\JJ	.	[
!!LO:LB:g=original
=32	=32	=32	=32
*^	*	*	*
16GG#/LL	4GG#\	4ee#X^^\)	.	.
16D/	.	.	.	.
16A/	.	.	.	.
16D/	.	.	.	.
16AA/	8AA\	[8ff#^^\	.	.
16A/JJ	.	.	.	.
16AA#X\LL	4AA#/	8ff#\L]	.	.
16F#\	.	.	.	.
16A#X\	.	(16een\L	.	.
16F#\	.	16dd\J	.	.
16AA#\	8AA#/	8cc#\J)	.	.
16A#\JJ	.	.	.	.
16BB\LL	4BB/	8ee^^\L	.	>
16F#\	.	.	.	.
16B\	.	(16dd\L	.	.
16F#\	.	16cc#\J	.	.
16BB\	8BB/	8b\J)	.	.
16F#\JJ	.	.	.	.
16C#\LL	4C#/	8cc#^^\L	.	.
16E#X\	.	.	.	.
16c#\	.	(16b\L	.	.
16E#\	.	16an\J	.	.
16c#\	8ryy	8g#\J)	.	]
16E#\JJ	.	.	.	.
*v	*v	*	*	*
=33	=33	=33	=33
16FF#\LL	8b^^</L	.	.
16C#\	.	.	.
16A\	(16a/L	.	.
16C#\	16g#/J	.	.
16A\	8f#/J)	.	.
16C#\JJ	.	.	.
16FF#\LL	8r	.	<
16C#\	.	.	.
16A\	(8f#/L	.	.
16C#\	.	.	.
16A\	8c#/J)	.	.
16C#\JJ	.	.	.
16FF#\LL	8r	.	.
16C#\	.	.	.
16A\	(8f#/L	.	.
16C#\	.	.	.
16A\	8g#/J)	.	.
16C#\JJ	.	.	.
16FF#\LL	8r	.	.
16C#\	.	.	.
16A\	(8a/L	.	.
16C#\	.	.	.
16A\	8b/J)	.	[
16C#\JJ	.	.	.
!!LO:PB:g=original
=34	=34	=34	=34
16AA\LL	8.cc#^^\L	.	f
16F#\	.	.	.
16A\	.	.	.
16F#\	(16ccc#m\L	.	.
16AA\	16bb\	.	.
16F#\JJ	16aa\JJ	.	.
16BB\LL	16gg#\LL	.	.
16D\	16ff#\	.	.
16G#\	16ee\	.	.
16B\	16dd\	.	.
16G#\	16cc#\	.	.
16D\JJ	16b\JJ)	.	.
16C#\LL	16a\LL	.	.
16c#\	16b\JJ	.	.
16F#\	[4cc#\	.	sf
16c#\	.	.	.
16A\	.	.	.
16c#\JJ	.	.	.
16C#\LL	16cc#\LL]	.	.
16c#\	16b#X\JJ	.	.
16E#X\	[4cc#\	.	sf
16c#\	.	.	.
16G#\	.	.	.
16c#\JJ	.	.	.
=35	=35	=35	=35
16C#\LL	16cc#\LL]	.	.
16c#\	16b#X\JJ	.	.
16F#\	[4cc#\	.	sf
16c#\	.	.	.
16A\	.	.	.
16c#\JJ	.	.	.
16C#\LL	16cc#\LL]	.	.
16c#\	16b#\JJ	.	.
16E#X\	4cc#\	.	sf
16c#\	.	.	.
16G#\	.	.	.
16c#\JJ	.	.	.
16BB\LL	4.dd 4.g# 4.e#X^^\	.	sf
16G#\	.	.	.
16B\	.	.	.
16G#\	.	.	.
16BB\	.	.	.
16G#\JJ	.	.	.
16AA\LL	8cc#L 8a 8f#\	.	>
16F#\	.	.	.
16A\	8cc# 8a 8f#\	.	.
16F#\	.	.	.
16AA\	8ff#\J	.	]
16F#\JJ	.	.	.
!!LO:LB:g=original
=36	=36	=36	=36
16BB\LL	(4.dd 4.g# 4.e#X\	.	sf >
16G#\	.	.	.
16B\	.	.	.
16G#\	.	.	.
16BB\	.	.	.
16G#\JJ	.	.	.
16AA\LL	8cc#L 8a 8f#\)	.	]
16F#\	.	.	.
16A\	8cc# 8a 8f#\	.	.
16F#\	.	.	.
16AA\	8ff#J 8cc# 8a 8f#\	.	.
16F#\JJ	.	.	.
16BB\LL	[>4.dd [>4.g# [>4.e#^^\	.	sf >
16G#\	.	.	.
16B\	.	.	.
16G#\	.	.	.
16BB\	.	.	.
16G#\JJ	.	.	.
16AA\LL	8dd]L 8g#] 8e#\]	.	]
16F#\	.	.	.
16A\	8cc# 8a 8f#\	.	.
16F#\	.	.	.
16AA\	[8ff#J 8cc# 8a 8f#\	.	.
16F#\JJ	.	.	.
=37	=37	=37	=37
16GG#\LL	8ff#\L]	.	.
16E#X\	.	.	.
16G#\	8ee#X 8cc# 8b\	.	.
16E#\	.	.	.
16GG#\	8ff#J 8cc# 8b\	.	.
16E#\JJ	.	.	.
16EE#X\LL	4gg# 4cc# 4b\	.	.
16C#\	.	.	.
16G#\	.	.	.
16C#\	.	.	.
16EE#\	8cc#\	.	.
16C#\JJ	.	.	.
16FF#\LL	4.aa 4.cc# 4.a\	.	sf
16C#\	.	.	.
16F#\	.	.	.
16C#\	.	.	.
16F#\	.	.	.
16C#\JJ	.	.	.
16BB\LL	4gg# 4dd 4b\	.	.
16D\	.	.	.
16G#\	.	.	.
16D\	.	.	.
16G#\	8ff#\	.	.
16D\JJ	.	.	.
!!LO:LB:g=original
=38	=38	=38	=38
16C#\LL	4cc# 4a 4f#\	.	.
16F#\	.	.	.
16A\	.	.	.
16c#\	.	.	.
16A\	16b#X\LL	.	.
16F#\JJ	16cc#\JJ	.	.
16C#\LL	(4dd 4g# 4e#X^^\	.	.
16E#X\	.	.	.
16G#\	.	.	.
16c#\	.	.	.
16G#\	8cc#\)	.	>
16E#\JJ	.	.	.
16FF#\LL	4.f#/	.	.
16C#\	.	.	.
16A\	.	.	.
16C#\	.	.	.
16A\	.	.	.
16C#\JJ	.	.	.
16FF#\LL	8r	.	.
16C#\	.	.	.
16A\	(8f#/L	.	.
16C#\	.	.	.
16A\	8c#/J)	.	.
16C#\JJ	.	.	.
=39	=39	=39	=39
16FF#\LL	8r	.	.
16C#\	.	.	.
16F#\	(8f#/L	.	.
16A\	.	.	.
16F#\	8g#/J	.	.
16C#\JJ	.	.	.
16FF#\LL	8r	.	.
16C#\	.	.	.
16F#\	8a\L	.	.
16A\	.	.	.
16F#\	8b\J	.	.
16C#\JJ	.	.	.
16FF#\LL	8cc#\L	.	.
16C#\	.	.	.
16F#\	8cc#\	.	.
16A\	.	.	.
16F#\	8ff#\J	.	.
16C#\JJ	.	.	.
16GG#\LL	4ee\	.	sf
16D\	.	.	.
16E\	.	.	.
16G#\	.	.	.
16E\	8b\)	.	.
16D\JJ	.	.	.
!!LO:LB:g=original
=40	=40	=40	=40
!	!LO:TX:b:i:t=ten	!	!
16AA\LL	[4.cc#\	.	.
16E\	.	.	.
16A\	.	.	.
16E\	.	.	.
16AA\	.	.	.
16E\JJ	.	.	.
16C#\LL	(8cc#\L]	.	.
16E#X\	.	.	.
16G#\	8g#\	.	.
16E#\	.	.	.
16C#\	8b\J	.	.
16E#\JJ	.	.	.
16FF#\LL	8a\L	.	.
16C#\	.	.	.
16F#\	16a\L	.	.
16A\	16g#\J	.	.
16F#\	8f#^^\J)	.	.
16C#\JJ	.	.	.
16FF#\LL	8r	.	.
16C#\	.	.	.
16F#\	(8f#/L	.	.
16A\	.	.	.
16F#\	8c#/J)	.	.
16C#\JJ	.	.	.
=41	=41	=41	=41
16FF#/LL	8r	.	.
16C#/	.	.	.
!	!	!	!LO:HP:a
16A/	(8f#/L	.	<
16C#/	.	.	.
16A/	8g#/J)	.	.
16C#/JJ	.	.	.
16FF#/LL	8a\	.	.
16C#/	.	.	.
16A/	(8a\L	.	.
16C#/	.	.	.
16A/	8b\J)	.	.
16C#/JJ	.	.	.
16FF#/LL	8.cc#^^\L	.	[
16C#/	.	.	.
16A/	.	.	.
16C#/	(16aa\L	.	.
16A/	16gg#\	.	.
16C#/JJ	16ff#\JJ)	.	.
*^	*	*	*
16GG#/LL	4GG#\	(4ee#X\	.	.
16D/	.	.	.	.
16G#/	.	.	.	.
16D/JJ	.	.	.	.
16AA/LL	8AA\	[8ff#\)	.	sf
16A/JJ	.	.	.	.
!!LO:LB:g=original
=42	=42	=42	=42	=42
16AA#X/LL	4AA#\	8ff#\L]	.	>
16F#/	.	.	.	.
16A#X/	.	(16een\L	.	.
16F#/	.	16dd\J	.	.
16AA#/	8AA#\	8cc#\J)	.	]
16A#/JJ	.	.	.	.
16BB\LL	8ryy	8ee^^\L	.	.
16F#\	.	.	.	.
16B\	1ryy	(16dd\L	.	.
16F#\	.	16cc#\J	.	.
16BB\	.	8b\J)	.	.
16F#\JJ	.	.	.	.
16C#\LL	.	8cc#\L	.	.
16E#X\	.	.	.	.
16G#\	.	8g#\	.	.
16c#\	.	.	.	.
16G#\	.	[8b\J	.	>
16E#\JJ	.	.	.	.
16F#\LL	.	8b\L]	.	.
16An\	.	.	.	.
16c#\	.	16a\L	.	.
16A\	.	16g#\J	.	.
16F#\	.	[8f#\J	.	.
16A\JJ	.	.	.	.
*v	*v	*	*	*
=43	=43	=43	=43
16F#\LL	(>8f#/L]	.	p
16A\	.	.	.
16c#\	8f#/	.	.
16A\	.	.	.
16F#\	8g#/J	.	.
16A\JJ	.	.	.
16C#\LL	8e#X/L	.	<
16G#\	.	.	.
16c#\	8e#/	.	.
16G#\	.	.	.
16C#\	8f#/J	.	.
16G#\JJ	.	.	.
16C#\LL	8g#/L	.	.
16E#X\	.	.	.
16G#\	8cc#/	.	.
16B\	.	.	.
16E#\	8g#/J	.	[ >
16B\JJ	.	.	.
16F#\LL	8b/L	.	.
16A\	.	.	.
16c#\	16a/L	.	.
16A\	16g#/J	.	.
16F#\	[>8f#/J)	.	]
16A\JJ	.	.	.
!!LO:LB:g=original
=44	=44	=44	=44
16F#\LL	(8f#/L]	.	<
16A\	.	.	.
16c#\	8f#/	.	.
16A\	.	.	.
16F#\	8g#/J	.	.
16A\JJ	.	.	.
16C#\LL	8e#X/L	.	.
16G#\	.	.	.
16c#\	8e#/	.	.
16G#\	.	.	.
16C#\	8f#/J	.	[
16G#\JJ	.	.	.
16C#\LL	8g#\L	.	>
16E#X\	.	.	.
16G#\	8.dd^^\	.	.
16B\	.	.	.
16E#\	.	.	.
16B\JJ	16cc#\Jk)	.	.
16F#\LL	(8cc#\L	.	.
16A\	.	.	.
16c#\	16a\L	.	.
16A\	16g#\J)	.	.
16F#\	[8f#^^\J	.	]
16A\JJ	.	.	.
=45	=45	=45	=45
16F#\LL	8f#/L]	.	.
16A\	.	.	.
16c#\	8f#/	.	.
16A\	.	.	.
16F#\	8c#/J	.	.
16A\JJ	.	.	.
16FF#\LL	4.f#/	.	.
16C#\	.	.	.
16A\	.	.	.
16C#\	.	.	.
16A\	.	.	.
16C#\JJ	.	.	.
16FF#\LL	8r	.	pp
16C#\	.	.	.
16A\	(8f#/L	.	<
16C#\	.	.	.
16A\	8g#/J)	.	.
16C#\JJ	.	.	.
16FF#\LL	8a/	.	.
16C#\	.	.	.
16A\	(8a/L	.	.
16C#\	.	.	.
16A\	8b/J)	.	[
16C#\JJ	.	.	.
!!LO:PB:g=original
=46	=46	=46	=46
16FF#\LL	8.cc#^^\L	.	.
16C#\	.	.	.
16A\	.	.	.
16C#\	(16aa\L	.	.
16A\	16gg#\	.	.
16C#\JJ	16ff#\JJ	.	.
16GG#\LL	4ee#X\)	.	sf >
16D\	.	.	.
16G#\	.	.	.
16D\JJ	.	.	.
16AA\LL	[8ff#\	.	]
16F#\JJ	.	.	.
16AA#X\LL	8ff#\L]	.	>
16F#\	.	.	.
16A#X\	16een\L	.	.
16F#\	16dd\J	.	.
16AA#\	8cc#\J	.	.
16F#\JJ	.	.	.
16BB\LL	8ee^^\L	.	.
16F#\	.	.	.
16B\	16dd\L	.	.
16F#\	16cc#\J	.	.
16BB\	8b\J	.	]
16F#\JJ	.	.	.
=47	=47	=47	=47
16C#\LL	8cc#^^\L	.	.
16E#X\	.	.	.
16B\	16b\L	.	.
16E#\	16an\J	.	.
16B\	8g#\J	.	.
16E#\JJ	.	.	.
16F#\LL	8b^^/L	.	.
16A\	.	.	.
16c#\	(16a/L	.	.
16A\	16g#/J	.	.
16F#\	8f#^^/J)	.	.
16A\JJ	.	.	.
16FF#\LL	8r	.	.
16C#\	.	.	.
16A\	(8f#/L	.	.
16C#\	.	.	.
16FF#\	8g#/J)	.	.
16C#\JJ	.	.	.
16FF#\LL	8a/	.	.
16C#\	.	.	.
16A\	(8a/L	.	.
16C#\	.	.	.
16FF#\	8b/J)	.	.
16C#\JJ	.	.	.
!!LO:LB:g=original
=48	=48	=48	=48
16AA\LL	8.cc#\L	.	f
16A\	.	.	.
16F#\	.	.	.
16A\	(16ccc#\L	.	.
16C#\	16bb\	.	.
16F#\JJ	16aa\JJ	.	.
16BB\LL	16gg#\LL	.	.
16D\	16ff#\	.	.
16G#\	16ee\	.	.
16D\	16dd\	.	.
16BB\	16cc#\	.	.
16D\JJ	16b\JJ)	.	.
16C#\LL	16a\LL	.	.
16c#\	16b\JJ	.	.
16F#\	[4cc#\	.	sf
16c#\	.	.	.
16A\	.	.	.
16c#\JJ	.	.	.
16C#\LL	16cc#\LL]	.	.
16c#\	16b#X\JJ	.	.
16E#X\	[4cc#\	.	sf
16c#\	.	.	.
16G#\	.	.	.
16c#\JJ	.	.	.
=49	=49	=49	=49
16C#\LL	16cc#\LL]	.	.
16c#\	16b#X\JJ	.	.
16F#\	[4cc#\	.	sf
16c#\	.	.	.
16A\	.	.	.
16c#\JJ	.	.	.
16C#\LL	16cc#\LL]	.	.
16c#\	16b#\JJ	.	.
16E#X\	4cc#\	.	sf
16c#\	.	.	.
16G#\	.	.	.
16c#\JJ	.	.	.
16BB\LL	4.dd 4.g# 4.e#X\	.	sf
16G#\	.	.	.
16B\	.	.	.
16G#\	.	.	.
16BB\	.	.	.
16G#\JJ	.	.	.
16AA\LL	8cc#L 8a 8f#\	.	>
16F#\	.	.	.
16A\	8cc# 8a 8f#\	.	.
16F#\	.	.	.
16AA\	8ff#J 8cc# 8a 8f#\	.	]
16F#\JJ	.	.	.
!!LO:LB:g=original
=50	=50	=50	=50
16BB\LL	4.dd 4.g# 4.e#X\	.	sf
16G#\	.	.	.
16B\	.	.	.
16G#\	.	.	.
16BB\	.	.	.
16G#\JJ	.	.	.
16AA\LL	8cc#L 8a 8f#\	.	>
16F#\	.	.	.
16A\	8cc# 8a 8f#\	.	.
16F#\	.	.	.
16AA\	8ff#J 8cc# 8a 8f#\	.	]
16F#\JJ	.	.	.
16BB\LL	4.dd 4.g# 4.e#^^\	.	.
16G#\	.	.	.
16B\	.	.	.
16G#\	.	.	.
16BB\	.	.	.
16G#\JJ	.	.	.
16BB-X\LL	(4.dd 4.g# 4.fn\	.	.
16Fn\	.	.	.
16B-X\	.	.	.
16F\	.	.	.
16BB-\	.	.	.
16F\JJ	.	.	.
=51	=51	=51	=51
!	!LO:TX:b:t=cres-cen-do:ext2=cd:problem=dynamics with extention lines	!	!
16AA\LL	4.dd 4.a 4.f#X\	.	<
16F#X\	.	.	.
16A\	.	.	.
16F#\	.	.	.
16AA\	.	.	.
16F#\JJ	.	.	.
16AA\LL	4.cc# 4.a 4.e\	.	.
16E\	.	.	.
16A\	.	.	.
16E\	.	.	.
16AA\	.	.	.
16E\JJ	.	.	.
16GG#\LL	4.cc# 4.f# 4.d#X\	.	.
16D#X\	.	.	.
16G#\	.	.	.
16D#\	.	.	.
16GG#\	.	.	.
16D#\JJ	.	.	.
16GG#\LL	4.ccn 4.f# 4.d#\	.	.
16D#\	.	.	.
16G#\	.	.	.
16D#\	.	.	.
16GG#\	.	.	.
16D#\JJ	.	.	.
!!LO:LB:g=original
=52	=52	=52	=52
16GGn\LL	4.ccn 4.fn 4.dn\)	.	.
16Dn\	.	.	.
16Gn\	.	.	.
16D\	.	.	.
16GG\	.	.	.
16D\JJ	.	.	.
16GG\LL	4.b 4.f 4.d\	.	.
16D\	.	.	.
16G\	.	.	.
16D\	.	.	.
16GG\	.	.	.
16D\JJ	.	.	.
16FF#\LL	4.b 4.f#X 4.c#\	.	.
16C#\	.	.	.
16F#\	.	.	.
16C#\	.	.	.
16FF#\	.	.	.
16C#\JJ	.	.	.
16FF#\LL	4.a#X 4.f# 4.c#\	.	.
16C#\	.	.	.
16F#\	.	.	.
16C#\	.	.	.
16FF#\	.	.	.
16C#\JJ	.	.	[
=53	=53	=53	=53
16DD/LL	[4.an [4.f# [4.cn\	.	fp
16AA/	.	.	.
16D/	.	.	.
16AA/	.	.	.
16DD/	.	.	.
16AA/JJ	.	.	.
16DD/LL	8a]L 8f#] 8c\]	.	.
16AA/	.	.	.
16D/	8g#\	.	.
16AA/	.	.	.
16DD/	8f#\J	.	.
16AA/JJ	.	.	.
16CC#/LL	[4.cc#X 4.a 4.f# 4.c#X^^^\	.	sf
16FF#/	.	.	.
16AA/	.	.	.
16C#/	.	.	.
16AA/	.	.	.
16FF#/JJ	.	.	.
16CC#/LL	(8cc#]L 8a 8f# 8c#\	.	.
16EE#X/	.	.	.
16GG#/	8g# 8e#X 8B\	.	.
16C#/	.	.	.
16GG#/	8a\J)	.	.
16EE#/JJ	.	.	.
!!LO:LB:g=original
=54	=54	=54	=54
16FF#/LL	8f#L 8c# 8A/	.	p
16C#/	.	.	.
16F#/	8f# 8c# 8A/	.	.
16C#/	.	.	.
16FF#/	8g#/J	.	.
16C#/JJ	.	.	.
16FF#/LL	8r	.	.
16C#/	.	.	.
16F#/	8aL 8f# 8c#/	.	.
16C#/	.	.	.
16FF#/	8b/J	.	.
16C#/JJ	.	.	.
!	!LO:TX:a:t=|	!	!
16FF#/LL	8cc#\L	.	.
16C#/	.	.	.
16F#/	(8cc# 8a 8f#\	.	.
16C#/	.	.	.
16FF#/	8ff#\J	.	.
16C#/JJ	.	.	.
16FF#/LL	4dd 4b 4g# 4e#X\	.	sf
16C#/	.	.	.
16F#/	.	.	.
16C#/	.	.	.
16FF#/	8cc#\)	.	.
16C#/JJ	.	.	.
=55	=55	=55	=55
16FF#/LL	8r	.	.
16C#/	.	.	.
16F#/	8f#L 8c# 8A/	.	.
16C#/	.	.	.
16FF#/	8g#/J	.	.
16C#/JJ	.	.	.
16FF#/LL	8a/L	.	.
16C#/	.	.	.
16F#/	8a 8f# 8c#/	.	.
16C#/	.	.	.
16FF#/	8b/J	.	.
16C#/JJ	.	.	.
16FF#/LL	8cc#L 8a 8f#\	.	.
16C#/	.	.	.
16F#/	8cc# 8a 8f#\	.	.
16C#/	.	.	.
16FF#/	8ff#\J	.	.
16C#/JJ	.	.	.
16FF#\LL	(4dd 4b 4g# 4e#X^\	.	sf
16C#\	.	.	.
16G#\	.	.	.
16C#\	.	.	.
16G#\	8cc#\)	.	.
16C#\JJ	.	.	.
!!LO:LB:g=original
=56	=56	=56	=56
*^	*	*	*
16FF#/LL	4FF#\	8r	.	.
16C#/	.	.	.	.
16F#/	.	(8f#L 8c# 8A/	.	pp
16C#/	.	.	.	.
16FF#/	8FF#\	8g#/J	.	.
16C#/JJ	.	.	.	.
16FF#/LL	4FF#\	8aL 8c# 8A/	.	.
16C#/	.	.	.	.
16F#/	.	8f# 8c# 8A/	.	.
16C#/	.	.	.	.
16FF#/	8FF#\	8g#J 8c# 8A/	.	.
16C#/JJ	.	.	.	.
16FF#/LL	4FF#\	8aL 8c# 8A/	.	.
16C#/	.	.	.	.
16F#/	.	8f# 8c# 8A/	.	.
16C#/	.	.	.	.
16FF#/	8FF#\	8g#J 8c# 8A/	.	.
16C#/JJ	.	.	.	.
16FF#/LL	4FF#\	8aL 8c# 8A/	.	.
16C#/	.	.	.	.
16F#/	.	8f# 8c# 8A/	.	.
16C#/	.	.	.	.
16FF#/	8FF#\	8g#J 8c# 8A/)	.	.
16C#/JJ	.	.	.	.
*v	*v	*	*	*
=57	=57	=57	=57
*8ba	*	*	*
*^	*	*	*
16FFF#/LL	8FFF#\L	[<2.f# [<2.c# [<2.A/	.	ppp
16FF#/	.	.	.	.
16CC#/	8CC#\	.	.	.
16FF#/	.	.	.	.
16AAA/	8AAA\J	.	.	.
16FF#/JJ	.	.	.	.
16FFF#/LL	8FFF#\L	.	.	.
16FF#/	.	.	.	.
16CC#/	8CC#\	.	.	.
16FF#/	.	.	.	.
16AAA/	8AAA\J	.	.	.
16FF#/JJ	.	.	.	.
4.FFF#\	2.ryy	4.f#] 4.c#] 4.A/]	.	.
*X8ba	*	*	*	*
4.r;	.	4.r;	.	.
*v	*v	*	*	*
!!LO:PB:g=original
=58||	=58||	=58||	=58||
!	!LO:TX:a:t=Piu tenuto	!	!
2.r	(8cc#L 8a\	.	p
.	8e\	.	.
.	8cc#J 8a\	.	.
!	!LO:TX:b:i:t=con melancolia	!	!
.	8cc#L 8a\	.	.
.	8e\	.	.
.	8cc#J 8a\	.	.
4.r	8bL 8a\	.	.
.	8e\	.	.
.	8bJ 8a\	.	.
8r	8cc#L 8a\	.	.
8.r	8f#\	.	.
!	!	!	!LO:DY:b=2
.	8cc#J 8a\	.	pp
(16F#\	.	.	.
=59	=59	=59	=59
8B\)	8ddL 8b\	.	.
8r	8f#\	.	.
8r	8ddJ 8b\	.	.
8E\	8eeL 8b\	.	.
8.r	8e\	.	.
.	8ddJ 8b\	.	.
(16G#\	.	.	.
8A\)	8cc#L 8a\	.	.
8r	8e\	.	.
8r	8cc#J 8a\	.	.
4r	8eeL 8cc#\	.	.
.	8e\	.	.
8r	8cc#J 8a\	.	.
=60	=60	=60	=60
4.E\	8bL 8g#\	.	.
.	8e\	.	.
.	8bJ 8g#\	.	.
4E#X\	8cc#L 8g#\	.	.
.	8c#\	.	.
16r	8bJ 8g#\	.	.
16E#\	.	.	.
8F#\	8aL 8f#\	.	<
8r	8c#\	.	.
8r	8aJ 8f#\	.	.
4D\	8bL 8f#\	.	.
.	8d\	.	.
16r	8b#XJ 8f#\	.	[
16D\	.	.	.
=61	=61	=61	=61
(2.C#/	8cc#L 8g# 8e#X\	.	fp
.	8c#\	.	.
.	8cc#J 8g# 8e#\	.	.
.	8cc#L 8g# 8e#\	.	.
.	8c#\	.	.
.	16b\L	.	.
.	16a\JJ	.	.
4CC#/)	8g#L 8e#\	.	.
.	8c#\	.	.
8r	8g#J 8e#\	.	.
4r	8g#L 8e#\	.	.
.	8c#\	.	.
8r	8cc#\J)	.	.
!!LO:LB:g=original
=62	=62	=62	=62
4Ani 4AA\	(8cc#L 8a\	.	f
.	8e\	.	.
8r	8cc#J 8a\	.	.
4.r	8cc#L 8a\	.	.
.	8e\	.	.
.	8cc#J 8a\	.	.
8E 8EE\	8bL 8g#\	.	.
8r	8e\	.	.
8r	8bJ 8g#\	.	.
8F# 8FF#\	8cc#L 8a\	.	.
8r	8c#\	.	.
8r	8cc#J 8a\	.	.
=63	=63	=63	=63
4.BB 4.BBB\	8ddL 8b\	.	.
.	8f#\	.	.
.	8ddJ 8b\	.	.
4E 4EE\	8eeL 8b\	.	.
.	8e\	.	.
16r	8ddJ 8b\	.	.
16G# 16GG#\	.	.	.
4A 4AA\	8cc#L 8a\	.	<
!	!LO:TX:b:i:t=dolce	!	!
.	8e\	.	.
8r	8eeJ 8cc#\	.	[
4.r	8aaL 8ee\	.	>
.	8ee 8cc#\	.	.
.	8cc#J 8a\)	.	]
=64	=64	=64	=64
*	*^	*	*
*	*ped	*	*	*
4.D 4.DD\	(4b/	8f#\L	.	.
.	.	8d\	.	.
.	8b/	8f#\J	.	.
4B: 4F#: 4D:\	4cc#/	8f#\L	.	.
.	.	8d\	.	.
8r	8dd/	8dd\J	.	.
4.E 4.EE\	4cc#/	8a\L	.	.
*	*	*Xped	*	*
.	.	8e\	.	.
.	8ryy	8cc#J 8a\	.	.
4r	4cc#/	8a\L	.	.
.	.	8e\	.	.
8r	8ryy	8cc#J 8a\)	.	.
=65	=65	=65	=65	=65
4E 4EE\	(4b/	8g#\L	.	.
.	.	8e\	.	.
8r	8a#X/	8a#\J	.	.
8e: 8B: 8E:\	4b/	8g#\L	.	p
8r	.	8d\	.	.
8r	8cc#/	8e\J	.	.
(4.A\	8r	2.ryy	.	.
.	8c#/L	.	.	>
.	8e/J	.	.	.
8AA/)	8an/L	.	.	.
8r	8e/	.	.	.
8r	8c#/J)	.	.	]
*	*v	*v	*	*
!!LO:LB:g=original
=66	=66	=66	=66
4.E 4.EE\	8bL 8g# 8e/	.	f
.	8B/	.	.
.	8bJ 8g# 8e/	.	.
8B: 8G#: 8E:\	8bL 8g# 8e/	.	.
8r	8B/	.	.
8r	8bJ 8g# 8e/	.	.
4.E 4.EE\	8cc#L 8a 8e/	.	.
.	8c#/	.	.
.	8cc#J 8a 8e/	.	.
8e: 8B: 8G#: 8E:\	8ddL 8b 8g#/	.	.
8r	8e/	.	.
8r	8ddJ 8b 8g#/	.	.
=67	=67	=67	=67
*	*^	*	*
4.E 4.EE\	8eeL 8cc# 8a\	2.ryy	.	<
.	8f#\	.	.	.
.	8eeJ 8cc# 8a\	.	.	.
8e: 8c#: 8A: 8E:\	8ff#L 8cc#\	.	.	.
8r	8.a\	.	.	.
8r	.	.	.	.
.	16gg#\Jk	.	.	sf
4E 4EE\	4.bb/	8cc#\L	.	.
.	.	8a\	.	.
8r	.	8cc#\J	.	.
8e: 8c#: 8A: 8E:\	4.aa/	8cc#\L	.	.
8r	.	8a\	.	.
8r	.	8cc#\J	.	.
=68	=68	=68	=68	=68
4AA 4AAA/	4aa/	8cc#\L	.	.
.	.	8a\	.	.
8r	8aa/	8cc#\J	.	.
8f#: 8cn: 8A:\	4gg#/	8dd#X\L	.	.
8r	.	8a\	.	.
8r	8ff#/	8ff#\J	.	.
4AA 4AAA/	4ee/	8cc#L 8a\	.	.
.	.	8e\	.	.
8r	8ryy	8eeJ 8cc# 8a\	.	.
8c#X: 8A: 8E:\	4ryy	8cc#L 8a\	.	.
8r	.	8e\	.	.
8r	8ryy	8eeJ 8cc# 8a\	.	.
*	*v	*v	*	*
=69	=69	=69	=69
*	*ped	*	*
4.BB 4.BBB/	8dd#XL 8b 8a\	.	f
.	8f#\	.	.
.	8dd#J 8b 8a\	.	.
4f#: 4d#X: 4B:\	8ff#L 8dd#\	.	.
.	8a\	.	.
16r	8aaJ 8ff# 8dd#\	.	.
16BB#X 16BBB#X/	.	.	.
4.BB# 4.BBB#/	8aaL 8ff# 8dd#\	.	.
*	*Xped	*	*
.	8a\	.	.
.	8aaJ 8ff# 8dd#\	.	.
4C# 4CC#/	8gg#L 8ee\	.	.
.	8g#\	.	.
8r	8gg#J 8ee\	.	.
!!LO:LB:g=original
=70	=70	=70	=70
*	*^	*	*
*	*ped	*	*	*
4.D 4.DD/	(4ff#/	8b\L	.	.
.	.	8f#\	.	.
.	8ff#/	8ff#\J	.	.
4d: 4B: 4F#: 4D:\	4gg#/	8b\L	.	p
.	.	8f#\	.	.
*	*Xped	*	*	*
16r	8ff#/)	8ff#\J	.	.
16D 16DD/	.	.	.	.
4.C# 4.CC#/	4.ryy	8eeL 8a\	.	.
.	.	8e\	.	.
.	.	8eeJ 8a\	.	.
4.D 4.DD/	(4ff#/	8a\L	.	>
.	.	8f#\	.	.
.	8b/)	8a\J	.	.
=71	=71	=71	=71	=71
4.E 4.EE/	4cc#/	8a\L	.	p
.	.	8e\	.	.
.	8cc#/	8a\J	.	.
4B: 4G#: 4E:\	4b/	8g#\L	.	.
.	.	8d\	.	.
8r	8cc#/	8e\J	.	.
4A 4AA\	8a/	8c#\	.	.
.	(8c#/L	4ryy	.	.
8r	8f#/J	.	.	.
4.r	8e/L	4.ryy	.	.
.	8c#/	.	.	.
.	8A/J)	.	.	.
*	*v	*v	*	*
=72	=72	=72	=72
*^	*	*	*
!	!	!LO:TX:b:i:t=m.g.	!	!LO:DY:a
4.B/	8EE\	8ryy	.	pp
!	!	!LO:TX:b:i:t=pesante	!	!
.	8ryy	(8g#L 8e/	.	f
.	8ryy	8b 8g#/	.	.
4B/	4ryy	8ee/	.	.
.	.	8b 8g#/	.	.
16r	8ryy	8g#J 8e/)	.	.
16B/	.	.	.	.
4.c#/	8CC#\	8ryy	.	.
.	8ryy	(8g#L 8e#X/	.	.
.	8ryy	8cc# 8g#/	.	.
4B/	4ryy	8ee#X/	.	.
.	.	8cc# 8g#/	.	.
16r	8ryy	8g#J 8e#/)	.	.
16c#/	.	.	.	.
=73	=73	=73	=73	=73
4.A/	8FF#\	8ryy	.	.
.	8ryy	(8f#L 8c#/	.	.
.	8ryy	8cc#J 8a/	.	.
4G#/	8CC#\	8ryy	.	.
.	8ryy	8g#L 8e#X 8c#/	.	.
16r	4FF#\	8cc#J 8g# 8e#/)	.	.
16F#/	.	.	.	.
4.F#/	.	8ryy	.	.
.	8ryy	(8f#L 8c#/	.	.
.	8ryy	8a 8f#/	.	.
16r	4ryy	8cc# 8a/	.	<
16F#/LL	.	.	.	.
16G#/	.	8a 8f#/	.	.
16F#/	.	.	.	.
16E#X/	8ryy	8f#J 8c#/)	.	[
16F#/JJ	.	.	.	.
=74	=74	=74	=74	=74
!LO:TX:b:i:t=m.g.	!	!	!	!
8qF#/	.	.	.	.
4.d/	8BBB\	8ryy	.	.
.	8ryy	(8bL 8f#/	.	.
.	8ryy	8dd 8b/	.	.
4d/	4ryy	8ff#/	.	.
.	.	8dd 8b/	.	.
(8d/	8ryy	8bJ 8f#/)	.	.
4.F#/)	8DD\	8ryy	.	.
.	8ryy	(8f#L 8d/	.	.
.	8ryy	8b 8f#/	.	.
4F#/	4ryy	8dd 8b/	.	.
.	.	8b 8f#/	.	.
16r	8ryy	8f#J 8d/)	.	.
16G#/	.	.	.	.
=75	=75	=75	=75	=75
[2G#/	8EE\	8ryy	.	.
.	8ryy	(8g#L 8e/	.	.
.	8ryy	8b 8g#/	.	.
.	4ryy	8ee/	.	.
32G#/LLL]	.	8b 8g#/	.	.
32A/	.	.	.	.
32A#X/	.	.	.	.
32B/	.	.	.	.
32An/	8ryy	8g#J 8e/)	.	.
32G#/	.	.	.	.
32A/	.	.	.	.
32F#/JJJ	.	.	.	.
[4.E/	8EE\	8ryy	.	.
.	8ryy	(8g#L 8e/	.	.
.	8ryy	8b 8g#/	.	.
4E/]	4ryy	8ee 8b/	.	.
.	.	8b 8g#/	.	.
(8E/	8ryy	8g#J 8e/)	.	.
=76	=76	=76	=76	=76
!	!	!	!	!LO:DY:a
4.c#/)	8AA\	8ryy	.	pp f
.	8ryy	(8aL 8e/	.	.
.	8ryy	8cc# 8a/	.	.
4c#/	4ryy	8ee 8cc#/	.	.
.	.	8cc# 8a/	.	.
8c#/	8ryy	8aJ 8e/)	.	.
(4.B/	8EE\	8ryy	.	.
.	8ryy	8bL 8g# 8e/	.	.
.	8ryy	8eeJ 8b 8g#/	.	.
4.c#/	8FF#\	8ryy	.	.
.	8ryy	8cc#L 8a#X 8f#/	.	.
.	8ryy	8eeJ 8cc# 8a#/	.	.
=77	=77	=77	=77	=77
4.d/	8BBB\	8ryy	.	sf
.	8ryy	(8ddL 8b/	.	.
.	8ryy	8bJ 8f#/	.	.
4e/)	4ryy	8g#/L	.	.
.	.	8b 8g#/	.	.
16r	8ryy	8ee/J)	.	.
16B/	.	.	.	.
4.c#/	8AA\	(8cc#L 8a/	.	.
.	8ryy	8ee 8cc#/)	.	.
!	!	!LO:TX:a:t=|	!	!
.	8ryy	8aa/J	.	.
4ryy	8ryy	[4a^\	.	.
!LO:TX:b:i:t=m.g.	!	!	!	!
.	8EL 8C# 8AA\	.	.	.
!	!	!LO:TX:a:t=problem&colon;mixed beam	!	!
8ryy	8AJ 8E 8C#\	16a\LL]	.	.
.	.	16c#\JJ	.	.
=78	=78	=78	=78	=78
4.B/	8DD\	8ryy	.	sf
!	!	!LO:TX:b:i:t=dolce	!	!
.	8ryy	(8f#L 8d/	.	.
.	8ryy	8bJ 8f#/	.	.
4c#/	4ryy	8r	.	.
.	.	8ddL 8b/	.	.
8d/	8ryy	8bJ 8f#/)	.	.
[4.c#/	8EE\	8ryy	.	.
.	8ryy	(8aL 8e/	.	.
.	8ryy	8cc# 8a/	.	.
4c#/]	4ryy	8ee 8cc#/	.	.
.	.	8cc# 8a/	.	.
16r	8ryy	8aJ 8e/)	.	.
16c#/	.	.	.	.
=79	=79	=79	=79	=79
4B/	8EE\	8ryy	.	.
.	8ryy	(8g#L 8e/	.	.
16r	8ryy	8b 8g#/	.	.
16A#X/	.	.	.	.
4B/	4ryy	8ee 8g#/	.	.
.	.	8b 8g#/	.	>
16r	8ryy	8g#J 8e/)	.	]
16c#/	.	.	.	.
8An/	8AA\	8ryy	.	.
8c#L 8A 8E/	8ryy	8r	.	.
8eJ 8c# 8A/	8ryy	8r	.	.
!	!	!LO:TX:a:t=m.d.	!	!
8FF#/	4ryy	(4.a#X\	.	.
8c#L 8A#X 8F#/	.	.	.	.
8eJ 8c# 8F#/	8ryy	.	.	.
*v	*v	*	*	*
=80	=80	=80	=80
8DD/	4cc#^^\	.	.
8BL 8F# 8D\	.	.	.
8dJ 8B 8F#\	8b\)	.	.
8EE/	(8.an/L	.	.
8BL 8G# 8E\	.	.	.
.	16g#/L	.	.
8dJ 8B 8G#\	16f#/	.	.
.	16e/JJ	.	.
.	(8qe/	.	.
8AA/	4.a/))	.	.
8c#L 8A 8E\	.	.	.
8eJ 8c# 8A\	.	.	.
8FF#/	4.a#X^t/	.	sf
8c#L 8A#X 8F#\	.	.	.
8eJ 8c# 8F#\	.	.	.
=81	=81	=81	=81
!	!LO:TX:b:i:t=com dolcezza	!	!
!	!LO:TX:a:t=problem&colon;siedmiola oznaczona 7	!	!
8DD/	(56%3b\LL	.	.
.	56%3cc#\	.	.
.	56%3b\	.	.
8BL 8F# 8D\	.	.	.
.	56%3a#X\	.	.
.	56%3b\	.	.
8dJ 8B 8F#\	.	.	.
.	8qb/	.	.
.	56%3gg#\	.	.
.	56%3ff#\JJ	.	.
8EE/	16ee\LL	.	.
.	16cc#\	.	.
8BL 8G# 8E\	16dd\	.	p
.	16b\	.	.
8dJ 8B\	16g#\	.	.
.	16e\JJ	.	.
8C#\L	4.an\)	.	.
8A 8E\	.	.	.
8c# 8A\	.	.	.
8e 8c#\	(4a\	.	.
8c# 8A\	.	.	.
8AJ 8E\	8b\	.	.
=82	=82	=82	=82
!	!LO:TX:b:i:t=ritard	!	!
8AA\L	(4.cc#\)	.	.
8B 8G#\	.	.	.
8c#J 8B\	.	.	.
8e#XL 8c#\	4.cc#\	.	.
8c# 8B\	.	.	.
8BJ 8G#\	.	.	.
16FF#\LL	8f#/)	.	.
16C#\	.	.	.
16A\	8r	.	.
16C#\	.	.	.
16A\	8r	.	.
16C#\JJ	.	.	.
16FF#\LL	4.r	.	.
16C#\	.	.	.
16A\	.	.	.
16C#\	.	.	.
16A\	.	.	.
16C#\JJ	.	.	.
==83	==83	==83	==83
*M12/8	*M12/8	*	*
!	!LO:TX:a:t=Tempo 1.° con agitazione	!	!
16FF#\LL	8r	.	p
16C#\	.	.	.
16A\	(8f#/L	.	.
16C#\	.	.	.
16FF#\	8g#/J)	.	.
16C#\JJ	.	.	.
16FF#\LL	8r	.	.
16C#\	.	.	.
16A\	(8a/L	.	.
16C#\	.	.	.
16FF#\	8b/J)	.	.
16C#\JJ	.	.	.
16FF#\LL	(8cc#\L	.	.
16C#\	.	.	.
16A\	8cc#\	.	.
16C#\	.	.	.
16FF#\	8ff#\J	.	.
16C#\JJ	.	.	.
16GG#\LL	4ee^\)	.	sf
16E\	.	.	.
16G#\	.	.	.
16E\	.	.	.
16GG#\	8b\	.	.
16E\JJ	.	.	.
=84	=84	=84	=84
!	!LO:TX:b:i:t=ten	!	!
16FF#\LL	[4.cc#\	.	.
16C#\	.	.	.
16A\	.	.	.
16C#\	.	.	.
16FF#\	.	.	.
16C#\JJ	.	.	.
16C#\LL	8cc#\L]	.	.
16E#X\	.	.	.
16G#\	(8g#\	.	.
16E#\	.	.	.
16C#\	8b\J	.	.
16E#\JJ	.	.	.
16FF#/LL	8a\L	.	>
16C#/	.	.	.
16F#/	16a\L	.	]
16A/	16g#\J	.	.
16F#/	8f#\J)	.	.
16C#/JJ	.	.	.
16FF#/LL	8r	.	.
16C#/	.	.	.
16F#/	(8f#/L	.	.
16A/	.	.	.
16F#/	8c#/J)	.	.
16C#/JJ	.	.	.
=85	=85	=85	=85
*^	*	*	*
16FF#/LL	2.ryy	8r	.	.
16C#/	.	.	.	.
16A/	.	(8f#/L	.	<
16C#/	.	.	.	.
16FF#/	.	8g#/J)	.	.
16C#/JJ	.	.	.	.
16FF#/LL	.	8a/	.	.
16C#/	.	.	.	.
16A/	.	(8a/L	.	.
16C#/	.	.	.	.
16FF#/	.	8b/J)	.	.
16C#/JJ	.	.	.	.
16FF#/LL	4.ryy	8.cc#^^\L	.	[
16C#/	.	.	.	.
16A/	.	.	.	.
16C#/	.	(16aa\L	.	.
16FF#/	.	16gg#\	.	.
16C#/JJ	.	16ff#\JJ	.	.
16GG#/LL	4GG#\	4ee#X\)	.	.
16D/	.	.	.	.
16A/	.	.	.	.
16D/	.	.	.	.
16AA/	8AA\	[8ff#^^\	.	.
16A/JJ	.	.	.	.
=86	=86	=86	=86	=86
!	!	!LO:TX:b:i:t=espres	!	!
16AA#X/LL	4AA#\	(8ff#\L]	.	.
16F#/	.	.	.	.
16A#X/	.	16ee\L	.	.
16F#/	.	16dd\J	.	.
16AA#/	8AA#\	8cc#\J)	.	.
16A#/JJ	.	.	.	.
16BB/LL	4ryy	(8ee^^\L	.	.
16F#/	.	.	.	.
16B/	.	16dd\L	.	.
16F#/	.	16cc#\J	.	.
16BB/	8ryy	8b\J)	.	.
16F#/JJ	.	.	.	.
16C#/LL	4ryy	(8cc#^^\L	.	.
16E#X/	.	.	.	.
16G#/	.	16b\L	.	.
16c#/	.	16an\J	.	.
16G#/	8ryy	8g#\J)	.	.
16E#/JJ	.	.	.	.
16F#/LL	4ryy	(8b^^\L	.	.
16A#/	.	.	.	.
16c#/	.	16a\L	.	.
16A#/	.	16g#\J	.	.
16F#/	8ryy	[8f#^^\J)	.	.
16A#/JJ	.	.	.	.
*v	*v	*	*	*
=87	=87	=87	=87
16F#\LL	(8f#/L]	.	p
16A\	.	.	.
16c#\	8f#/	.	.
16A\	.	.	.
16F#\	8g#/J	.	.
16A\JJ	.	.	.
!	!LO:TX:b:i:t=semplice	!	!
16C#\LL	8e#X/L	.	.
16G#\	.	.	.
16c#\	8e#/	.	.
16G#\	.	.	.
16C#\	8f#/J	.	.
16G#\JJ	.	.	.
16C#\LL	8g#\L	.	.
16E#X\	.	.	.
16G#\	8cc#\	.	.
16B\	.	.	.
16E#\	8g#\J	.	.
16B\JJ	.	.	.
16F#\LL	8b\L	.	.
16A\	.	.	.
16c#\	16a\L	.	.
16A\	16g#\J	.	.
16F#\	[8f#\J)	.	.
16A\JJ	.	.	.
=88	=88	=88	=88
16F#\LL	(8f#/L]	.	.
16A\	.	.	.
16c#\	8f#/	.	.
16A\	.	.	.
16F#\	8g#/J	.	.
16A\JJ	.	.	.
16C#\LL	8e#X/L	.	.
16G#\	.	.	.
16c#\	8e#/	.	.
16G#\	.	.	.
16C#\	8f#/J	.	.
16G#\JJ	.	.	.
16C#\LL	8g#/L	.	.
16E#X\	.	.	.
16G#\	8cc#/	.	.
16B\	.	.	.
16E#\	8g#/J	.	.
16B\JJ	.	.	.
16F#\LL	(8b^^/L	.	.
16A\	.	.	.
16c#\	16a/L	.	.
16A\	16g#/J	.	.
16F#\	8f#/J))	.	.
16A\JJ	.	.	.
=89	=89	=89	=89
16F#\LL	8r	.	.
16A\	.	.	.
16c#\	8f#/L	.	p
16A\	.	.	.
16F#\	8c#/J	.	.
16A\JJ	.	.	.
16FF#\LL	8r	.	.
16C#\	.	.	.
16A\	(8f#/L	.	.
16C#\	.	.	.
16A\	8g#/J	.	.
16C#\JJ	.	.	.
16FF#\LL	8a\L)	.	.
16C#\	.	.	.
16A\	(8a\	.	.
16C#\	.	.	.
16A\	8b\J	.	.
16C#\JJ	.	.	.
16FF#\LL	8.cc#^^\L)	.	<
16C#\	.	.	.
16A\	.	.	.
16C#\	(16aa\L	.	.
16A\	16gg#\	.	.
16C#\JJ	16ff#\JJ	.	[
=90	=90	=90	=90
*^	*	*	*
16AA/LL	4AA\	4ee#X\)	.	sf
16D/	.	.	.	.
16A/	.	.	.	.
16D/	.	.	.	.
16AA/	8AA\	[8ff#^\	.	.
16A/JJ	.	.	.	.
16AA#X/LL	4AA#\	8ff#\L]	.	.
16F#/	.	.	.	.
16A#X/	.	16een\L	.	.
16F#/	.	16dd\J	.	.
16AA#/	8AA#\	8cc#\J	.	.
16A#/JJ	.	.	.	.
16BB/LL	4BB\	8ee^^\L	.	.
16F#/	.	.	.	.
16B/	.	16dd\L	.	.
16F#/	.	16cc#\J	.	.
16BB/	8BB\	8b\J	.	.
16F#/JJ	.	.	.	.
16C#/LL	4.ryy	8cc#^^\L	.	.
16E#X/	.	.	.	.
16G#/	.	16b\L	.	.
16E#/	.	16an\J	.	.
16B/	.	8g#\J	.	.
16E#/JJ	.	.	.	.
*v	*v	*	*	*
=91	=91	=91	=91
16F#\LL	8b^^\L	.	.
16A\	.	.	.
16c#\	16a\L	.	.
16A\	16g#\J	.	.
16F#\	8f#\J	.	.
16A\JJ	.	.	.
16FF#\LL	8r	.	.
16C#\	.	.	.
16A\	8f#/L	.	.
16C#\	.	.	.
16A\	8c#/J	.	.
16C#\JJ	.	.	.
16FF#\LL	8r	.	.
16C#\	.	.	.
16A\	(8f#/L	.	.
16C#\	.	.	.
16A\	8g#/J)	.	.
16C#\JJ	.	.	.
16FF#\LL	8r	.	.
16C#\	.	.	.
16A\	(8a/L	.	.
16C#\	.	.	.
16A\	8b/J)	.	.
16C#\JJ	.	.	.
=92	=92	=92	=92
16AA\LL	8.cc#\L	.	f
16C#\	.	.	.
16F#\	.	.	.
16A\	(16ccc#\L	.	.
16F#\	16bb\	.	.
16C#\JJ	16aa\JJ	.	.
16BB\LL	16gg#\LL	.	.
16D\	16ff#\	.	.
16G#\	16ee\	.	.
16B\	16dd\	.	.
16G#\	16cc#\	.	.
16D\JJ	16b\JJ)	.	.
16C#\LL	16a\LL	.	.
16c#\	16b\JJ	.	.
16F#\	[4cc#\	.	rfz
16c#\	.	.	.
16A\	.	.	.
16c#\JJ	.	.	.
16C#\LL	16cc#\LL]	.	.
16c#\	16b#X\JJ	.	.
16E#X\	[4cc#\	.	.
16c#\	.	.	.
16G#\	.	.	.
16c#\JJ	.	.	.
=93	=93	=93	=93
16C#\LL	16cc#\LL]	.	.
16c#\	16b#X\JJ	.	.
16F#\	[4cc#\	.	rfz
16c#\	.	.	.
16A\	.	.	.
16c#\JJ	.	.	.
16C#\LL	16cc#\LL]	.	.
16c#\	16b#\JJ	.	.
16E#X\	4cc#\	.	.
16c#\	.	.	.
16G#\	.	.	.
16c#\JJ	.	.	.
16BB\LL	(4.dd 4.g# ((4.e#X^^\	.	.
16G#\	.	.	.
16B\	.	.	.
16G#\	.	.	.
16BB\	.	.	.
16G#\JJ	.	.	.
!	!LO:TX:b:i:t=agitato	!	!
16AA\LL	8cc#L 8a 8f#\)))	.	.
16F#\	.	.	.
16A\	8cc# 8a 8f#\	.	.
16F#\	.	.	.
!	!LO:TX:b:i:t=ed	!	!
16AA\	8ff#J 8cc# 8a 8f#\	.	.
16F#\JJ	.	.	.
=94	=94	=94	=94
!	!LO:TX:b:i:t=accelerando	!	!
16BB\LL	(4.dd 4.g# ((4.e#X^^\	.	.
16G#\	.	.	.
16B\	.	.	.
16G#\	.	.	.
16BB\	.	.	.
16G#\JJ	.	.	.
16AA\LL	8cc#L 8a 8f#\)))	.	.
16F#\	.	.	.
16A\	8cc# 8a 8f#\	.	.
16F#\	.	.	.
16AA\	8ff#J 8cc# 8a 8f#\	.	.
16F#\JJ	.	.	.
16BB\LL	(4.dd 4.g# ((4.e#^^\	.	.
16G#\	.	.	.
16B\	.	.	.
16G#\	.	.	.
16BB\	.	.	.
16G#\JJ	.	.	.
16AA\LL	8cc#L 8a 8f#\)))	.	.
16F#\	.	.	.
16A\	8cc# 8a 8f#\	.	.
16F#\	.	.	.
16AA\	[8ff#J 8cc# 8a 8f#\	.	.
16F#\JJ	.	.	.
=95	=95	=95	=95
16GG#/LL	8ff#\L]	.	.
16E#X/	.	.	.
16G#/	8ee#X 8cc# 8b\	.	.
16E#/	.	.	.
16GG#/	8ff#J 8cc# 8b\	.	.
16E#/JJ	.	.	.
16EE#X\LL	4gg# 4b^^\	.	.
16C#\	.	.	.
16G#\	.	.	.
16C#\	.	.	.
16EE#\	8cc#\	.	f
16C#\JJ	.	.	.
16FF#\LL	(4.aa 4.cc# 4.a\	.	.
16F#\	.	.	.
16C#\	.	.	.
16F#\	.	.	.
16FF#\	.	.	.
16F#\JJ	.	.	.
16BB\LL	4gg# 4dd 4b\	.	.
16G#\	.	.	.
16D\	.	.	.
16G#\	.	.	.
16BB\	8ff#\)	.	.
16G#\JJ	.	.	.
=96	=96	=96	=96
16C#\LL	(4cc# 4a 4f#^^\	.	.
16F#\	.	.	.
16A\	.	.	.
16c#\	.	.	.
16F#\	16b#X\LL	.	.
16A\JJ	16cc#\JJ)	.	.
16C#\LL	(4dd 4g# 4e#X^^\	.	.
16E#X\	.	.	.
16G#\	.	.	.
16c#\	.	.	.
16G#\	8cc#\)	.	.
16E#\JJ	.	.	.
16FF#\LL	8f#/	.	.
16C#\	.	.	.
!	!LO:TX:a:t=Tempo rubato	!	!
16A\	4.cc# 4.c#/	.	sf
16C#\	.	.	.
16A\	.	.	.
16C#\JJ	.	.	.
16FF#\LL	.	.	.
16C#\	.	.	.
16G#\	[4b# [4B#X/	.	sf
16C#\	.	.	.
16G#\	.	.	.
16C#\JJ	.	.	.
=97	=97	=97	=97
16FF#\LL	8b#] 8B#/]	.	sf
16C#\	.	.	.
16A\	4cc# 4c#^^/	.	.
16C#\	.	.	.
16A\	.	.	.
16C#\JJ	.	.	.
16FF#\LL	8cc#L 8c#'/	.	<
16C#\	.	.	.
16A\	8ff# 8f#'/	.	.
16C#\	.	.	.
16A\	8gg#J 8g#'/	.	.
16C#\JJ	.	.	.
16FF#\LL	8aa 8a'\	.	[
16C#\	.	.	.
16A\	[4ccc# [4cc#\	.	sf >
16C#\	.	.	.
16A\	.	.	.
16C#\JJ	.	.	.
16FF#\LL	(8ccc#]L 8cc#\]	.	.
16C#\	.	.	.
16G#\	8bb#X 8b#X\	.	]
16C#\	.	.	.
16G#\	8gg#J 8g#\)	.	.
16C#\JJ	.	.	.
=98	=98	=98	=98
16FF#\LL	[4.ccc# [4.cc#\	.	sf
16C#\	.	.	.
16A\	.	.	.
16C#\	.	.	.
16A\	.	.	.
16C#\JJ	.	.	.
16FF#\LL	4ccc#] 4cc#\]	.	>
16C#\	.	.	.
16A\	.	.	.
16C#\	.	.	.
16A\	4cc# 4c#/	.	]
16C#\JJ	.	.	.
16FF#\LL	.	.	.
16C#\	.	.	.
16A\	4.cc# 4.c#/	.	sf
16C#\	.	.	.
16A\	.	.	.
16C#\JJ	.	.	.
16FF#\LL	.	.	.
16C#\	.	.	.
16G#\	[4b#X [4B#X/	.	sf
16C#\	.	.	.
16G#\	.	.	.
16C#\JJ	.	.	.
=99	=99	=99	=99
16FF#\LL	8b#] 8B#/]	.	.
16C#\	.	.	.
16A\	[4cc# [4c#/	.	.
16C#\	.	.	.
16A\	.	.	.
16C#\JJ	.	.	.
16FF#\LL	8cc#]L 8c#/]	.	<
16C#\	.	.	.
16A\	8ff# 8f#/	.	.
16C#\	.	.	.
16FFn\	8gg#J 8g#/	.	[
16C#\JJ	.	.	.
!	!LO:TX:b:i:t=ten.	!	!
16EE\LL	4.aa 4.a\	.	.
16C#\	.	.	.
16A\	.	.	.
16C#\	.	.	.
16EE\	.	.	.
16C#\JJ	.	.	.
16EE\LL	(8aaL 8a\	.	.
16BB\	.	.	.
16E\	8bb 8bn\	.	.
16BB\	.	.	.
16EE\	8eeJ 8e\)	.	.
16BB\JJ	.	.	.
=100	=100	=100	=100
!	!LO:TX:b:i:t=ten	!	!
.	8qee 8qe/	.	f
16AA\LL	2.ccc# 2.cc#\	.	.
16E\	.	.	.
16c#\	.	.	.
16E\	.	.	.
16AA\	.	.	.
16E\JJ	.	.	.
16AA\LL	.	.	.
16E\	.	.	.
16c#\	.	.	.
16E\	.	.	.
16AA\	.	.	.
16E\JJ	.	.	.
16AA\LL	4.ccc# 4.cc#\	.	.
16E\	.	.	.
16c#\	.	.	.
16E\	.	.	.
16AA\	.	.	.
16E\JJ	.	.	.
16GG#\LL	8ccc#L 8cc#\	.	p
16D#X\	.	.	.
16B#X\	8bb#X 8b#X\	.	.
16D#\	.	.	.
16GG#\	[8gg#J [8g#\	.	.
16D#\JJ	.	.	.
=101	=101	=101	=101
16GG#\LL	8gg#]L 8g#\]	.	<
16D#X\	.	.	.
16B#X\	8gg# 8g#\	.	.
16D#\	.	.	.
16GG#\	8aaJ 8a\	.	[
16D#\JJ	.	.	.
16GG#\LL	4.bbn 4.bn\	.	.
16Dn\	.	.	.
16G#\	.	.	.
16D\	.	.	.
16GG#\	.	.	.
16D\JJ	.	.	.
16GG#\LL	8r	.	.
16D\	.	.	.
16G#\	(8bbL 8b\	.	.
16D\	.	.	.
16GG#\	8bb#XJ 8b#X\)	.	.
16D\JJ	.	.	.
16EE#X\LL	8r	.	.
16C#\	.	.	.
16G#\	(8ccc#L 8cc#\	.	.
16C#\	.	.	.
16BBn\	8gg#J 8g#\)	.	.
16C#\JJ	.	.	.
=102	=102	=102	=102
16FF#\LL	8r	.	.
16C#\	.	.	.
16A\	(8ff#L 8f#\	.	.
16C#\	.	.	.
16FF#\	8gg#J 8g#\	.	.
16C#\JJ	.	.	.
16FF#\LL	[4.aa [4.a\)	.	sf
16C#\	.	.	.
16A\	.	.	.
16C#\	.	.	.
16FF#\	.	.	.
16C#\JJ	.	.	.
16FF#\LL	8aa] 8a\]	.	.
16C#\	.	.	.
16A\	4.aa 4.a\	.	.
16C#\	.	.	.
16FF#\	.	.	.
16C#\JJ	.	.	.
16DD/LL	.	.	.
16AA/	.	.	.
16D/	8gg#L 8g#\	.	.
16AA/	.	.	.
16DD/	8ff#J 8f#\	.	.
16AA/JJ	.	.	.
=103	=103	=103	=103
16CC#/LL	8ee#X 8e#X\	.	<
16GG#/	.	.	.
16C#/	4ccc# 4cc#\	.	[
16GG#/	.	.	.
16CC#/	.	.	.
16GG#/JJ	.	.	.
16DD/LL	8aaL 8a\	.	>
16AA/	.	.	.
16D/	8gg# 8g#\	.	.
16AA/	.	.	.
16DD/	8ff#J 8f#\	.	]
16AA/JJ	.	.	.
16CC#/LL	8ee# 8e#\	.	<
16GG#/	.	.	.
16C#/	4ccc# 4cc#\	.	[
16GG#/	.	.	.
16CC#/	.	.	.
16GG#/JJ	.	.	.
16DD/LL	8aaL 8a\	.	>
16AA/	.	.	.
16D/	8gg# 8g#\	.	.
16AA/	.	.	.
16DD/	8ff#J 8f#\	.	]
16AA/JJ	.	.	.
=104	=104	=104	=104
16CC#/LL	8ee#X 8e#X\	.	sf
16GG#/	.	.	.
16C#/	4.ccc# 4.cc#\	.	p
16GG#/	.	.	.
16CC#/	.	.	.
16GG#/JJ	.	.	.
16CC#/LL	.	.	.
16GG#/	.	.	.
16C#/	4.ccc# 4.cc#\	.	.
16GG#/	.	.	.
16CC#/	.	.	.
16GG#/JJ	.	.	.
16CC#/LL	.	.	.
16GG#/	.	.	.
16C#/	4.cc# 4.c#/	.	p
16GG#/	.	.	.
16CC#/	.	.	.
16GG#/JJ	.	.	.
16CC#/LL	.	.	.
16GG#/	.	.	.
!	!LO:TX:b:i:t=rallen.	!	!
16C#/	4c#/	.	.
16GG#/	.	.	.
16CC#/	.	.	.
16GG#/JJ	.	.	.
=105	=105	=105	=105
16FF#\LL	8r	.	pp
16C#\	.	.	.
16F#\	(8f#/L	.	.
16A\	.	.	.
!	!LO:TX:b:i:t=a Tempo sotto voce	!	!
16F#\	8g#/J)	.	.
16C#\JJ	.	.	.
16FF#\LL	8a\	.	.
16C#\	.	.	.
16F#\	(8a\L	.	.
16A\	.	.	.
16F#\	8b\J)	.	.
16C#\JJ	.	.	.
16FF#\LL	(8cc#\L	.	.
16C#\	.	.	.
16F#\	8cc#\	.	.
16A\	.	.	.
16F#\	8ff#\J)	.	.
16C#\JJ	.	.	.
16GG#\LL	(4een^^\	.	.
16D\	.	.	.
16E\	.	.	.
16G#\	.	.	.
16E\	8b\)	.	.
16D\JJ	.	.	.
=106	=106	=106	=106
!	!LO:TX:b:i:t=ten	!	!
16AA\LL	([4.cc#^^\	.	.
16C#\	.	.	.
16E\	.	.	.
16A\	.	.	.
16E\	.	.	.
16A\JJ	.	.	.
16C#\LL	8cc#\L]	.	p
16E#X\	.	.	.
16G#\	8g#\	.	.
16E#\	.	.	.
16C#\	8b\J	.	.
16E#\JJ	.	.	.
16FF#\LL	8a/L)	.	>
16C#\	.	.	.
16F#\	16a/L	.	]
16A\	16g#/J	.	.
16F#\	8f#/J	.	.
16C#\JJ	.	.	.
16FF#\LL	8r	.	.
16C#\	.	.	.
16F#\	(8f#/L	.	.
16A\	.	.	.
16F#\	8c#/J)	.	.
16C#\JJ	.	.	.
=107	=107	=107	=107
16FF#\LL	8r	.	.
16C#\	.	.	.
16A\	(8f#/L	.	.
16C#\	.	.	.
16FF#\	8g#/J)	.	.
16C#\JJ	.	.	.
16FF#\LL	8a/	.	.
16C#\	.	.	.
16A\	(8a/L	.	<
16C#\	.	.	.
16FF#\	8b/J)	.	.
16C#\JJ	.	.	.
16FF#\LL	8.cc#^^\L	.	[
16C#\	.	.	.
16A\	.	.	.
16C#\	(16aa\L	.	.
16FF#\	16gg#\	.	.
16C#\JJ	16ff#\JJ	.	.
16GG#\LL	4ee#X\)	.	sf
16D\	.	.	.
16A\	.	.	.
16D\	.	.	.
16AA\	[8ff#^^\	.	.
16A\JJ	.	.	.
=108	=108	=108	=108
16AA#X\LL	8ff#\L]	.	.
16F#\	.	.	.
16A#X\	(16ee\L	.	.
16F#\	16dd\J	.	.
16AA#\	8cc#\J)	.	.
16A#\JJ	.	.	.
16BB\LL	8ee^^\L	.	.
16F#\	.	.	.
16B\	(16dd\L	.	.
16F#\	16cc#\J	.	.
16BB\	8b\J)	.	.
16F#\JJ	.	.	.
16C#\LL	8cc#^^\L	.	.
16E#X\	.	.	.
16G#\	(16b\L	.	.
16c#\	16an\J	.	.
16G#\	8g#\J)	.	.
16E#\JJ	.	.	.
16F#\LL	8b^^\L	.	.
16A#\	.	.	.
16c#\	(16a\L	.	.
16A#\	16g#\J	.	.
16F#\	[8f#\J)	.	.
16A#\JJ	.	.	.
=109	=109	=109	=109
16F#\LL	(8f#/L]	.	p
16A\	.	.	.
16c#\	8f#/	.	.
16A\	.	.	.
16F#\	8g#/J	.	.
16A\JJ	.	.	.
!	!LO:TX:b:i:t=dolce	!	!
16C#\LL	8e#X/L	.	.
16G#\	.	.	.
16c#\	8e#/	.	.
16G#\	.	.	.
16C#\	8f#/J	.	.
16G#\JJ	.	.	.
16C#\LL	8g#/L	.	.
16E#X\	.	.	.
16G#\	8cc#/	.	.
16B\	.	.	.
16E#\	8g#/J	.	.
16B\JJ	.	.	.
16F#\LL	8b/L	.	.
16A\	.	.	.
16c#\	16a/L	.	.
16A\	16g#/J	.	.
16F#\	[8f#/J)	.	.
16A\JJ	.	.	.
=110	=110	=110	=110
16F#\LL	(8f#/L]	.	.
16A\	.	.	.
16c#\	8f#/	.	.
16A\	.	.	.
16F#\	8g#/J	.	.
16A\JJ	.	.	.
16C#\LL	8e#X/L	.	.
16G#\	.	.	.
16c#\	8e#/	.	.
16G#\	.	.	.
16C#\	8f#/J	.	.
16G#\JJ	.	.	.
16C#\LL	8g#/L	.	.
16E#X\	.	.	.
16G#\	8.cc#/	.	.
16B\	.	.	.
16E#\	.	.	.
16B\JJ	16g#/Jk	.	.
16F#\LL	8b/L	.	.
16A\	.	.	.
16c#\	16a/L	.	.
16A\	16g#/J	.	.
16F#\	[8f#^^/J)	.	.
16A\JJ	.	.	.
=111	=111	=111	=111
16F#\LL	8f#/L]	.	<
16A\	.	.	.
16c#\	8f#/	.	.
16A\	.	.	.
16F#\	8c#/J	.	.
16A\JJ	.	.	.
16FF#\LL	8r	.	.
16C#\	.	.	.
16A\	(8f#/L	.	.
16C#\	.	.	.
16A\	8g#/J)	.	.
16C#\JJ	.	.	.
16FF#\LL	8a/	.	.
16C#\	.	.	.
16A\	(8a/L	.	.
16C#\	.	.	.
16A\	8b/J)	.	.
16C#\JJ	.	.	.
16FF#\LL	8.cc#^^\L	.	[
16C#\	.	.	.
16A\	.	.	.
16C#\	(16aa\L	.	.
16A\	16gg#\	.	.
16C#\JJ	16ff#\JJ)	.	.
=112	=112	=112	=112
*^	*	*	*
16GG#/LL	4GG#\	(4ee#X\	.	sf
16D/	.	.	.	.
16A/	.	.	.	.
16D/	.	.	.	.
16AA/	8AA\	[8ff#^^\)	.	.
16A/JJ	.	.	.	.
16AA#X\LL	2.ryy	8ff#\L]	.	.
16F#\	.	.	.	.
16A#X\	.	(16een\L	.	.
16F#\	.	16dd\J	.	.
16AA#\	.	8cc#\J)	.	.
16F#\JJ	.	.	.	.
16BB\LL	.	8ee^^\L	.	.
16F#\	.	.	.	.
16B\	.	(16dd\L	.	.
16F#\	.	16cc#\J	.	.
16BB\	.	8b\J)	.	.
16F#\JJ	.	.	.	.
*v	*v	*	*	*
16C#\LL	8cc#^^\L	.	>
16E#X\	.	.	.
16B\	(16b\L	.	]
16E#\	16an\J	.	.
16B\	8g#\J)	.	.
16E#\JJ	.	.	.
=113	=113	=113	=113
16F#\LL	8b^^\L	.	.
16A\	.	.	.
16c#\	(16a\L	.	.
16A\	16g#\J	.	.
16F#\	8f#\J)	.	.
16A\JJ	.	.	.
16F#\LL	8b/L	.	pp
16A\	.	.	.
16c#\	16a/L	.	.
16A\	16g#/J	.	.
16F#\	8f#/J	.	.
16A\JJ	.	.	.
16FF#\LL	8r	.	<
16C#\	.	.	.
16A\	(8f#/L	.	.
16C#\	.	.	.
16A\	8g#/J)	.	.
16C#\JJ	.	.	.
16FF#\LL	(8a/L	.	.
16C#\	.	.	.
16A\	8a/	.	.
16C#\	.	.	.
16A\	8b/J)	.	[
16C#\JJ	.	.	.
=114	=114	=114	=114
16AA\LL	8.cc#^^\L	.	.
16A\	.	.	.
16F#\	.	.	.
16A\	(16ccc#m\L	.	f
16C#\	16bb\	.	.
16F#\JJ	16aa\JJ	.	.
16BB\LL	16gg#\LL	.	.
16G#\	16ff#\	.	.
16D\	16ee\	.	.
16G#\	16dd\	.	.
16BB\	16cc#\	.	.
16G#\JJ	16b\JJ)	.	.
16C#\LL	16a\LL	.	.
16c#\	16b\JJ	.	.
16F#\	[4cc#\	.	sf
16c#\	.	.	.
16A\	.	.	.
16c#\JJ	.	.	.
16C#\LL	16cc#\LL]	.	.
16c#\	16b#X\JJ	.	.
16E#X\	[4cc#\	.	sf
16c#\	.	.	.
16G#\	.	.	.
16c#\JJ	.	.	.
=115	=115	=115	=115
16C#\LL	16cc#\LL]	.	.
16c#\	16b#X\JJ	.	.
16F#\	[4cc#\	.	sf
16c#\	.	.	.
16A\	.	.	.
16c#\JJ	.	.	.
16C#\LL	16cc#\LL]	.	.
16c#\	16b#\JJ	.	.
16E#X\	4cc#\	.	sf
16c#\	.	.	.
16G#\	.	.	.
16c#\JJ	.	.	.
16BB\LL	4.dd 4.g# 4.e#X^^\	.	f
16G#\	.	.	.
16B\	.	.	.
16G#\	.	.	.
16BB\	.	.	.
16G#\JJ	.	.	.
!	!LO:TX:b:i:t=agitato	!	!
16AA\LL	(8cc#L 8a 8f#\	.	.
16F#\	.	.	.
16A\	8cc# 8a 8f#\	.	.
16F#\	.	.	.
16AA\	8ff#J 8cc# 8a 8f#\)	.	.
16F#\JJ	.	.	.
=116	=116	=116	=116
16BB\LL	4.dd 4.g# 4.e#X^^\	.	.
16G#\	.	.	.
16B\	.	.	.
16G#\	.	.	.
16BB\	.	.	.
16G#\JJ	.	.	.
16AA\LL	(8cc#L 8a 8f#\	.	.
16F#\	.	.	.
16A\	8cc# 8a 8f#\	.	.
16F#\	.	.	.
16AA\	8ff#J 8cc# 8a 8f#\)	.	.
16F#\JJ	.	.	.
16BB\LL	(4.dd 4.g# 4.e#^^\	.	.
16G#\	.	.	.
16B\	.	.	.
16G#\	.	.	.
16BB\	.	.	.
16G#\JJ	.	.	.
16BB-X\LL	4.dd 4.g# 4.fn\	.	.
16G#\	.	.	.
16B-X\	.	.	.
16G#\	.	.	.
16BB-\	.	.	.
16G#\JJ	.	.	.
=117	=117	=117	=117
!	!LO:TX:b:i:t=stringendo	!	!
16AA\LL	4.dd 4.a 4.f#X\	.	.
16F#X\	.	.	.
16A\	.	.	.
16F#\	.	.	.
16AA\	.	.	.
16F#\JJ	.	.	.
16AA\LL	4.cc# 4.a 4.e\	.	.
16E\	.	.	.
16A\	.	.	.
16E\	.	.	.
16AA\	.	.	.
16E\JJ	.	.	.
16GG#\LL	4.cc# 4.f# 4.d#X\	.	.
16D#X\	.	.	.
16G#\	.	.	.
16D#\	.	.	.
16GG#\	.	.	.
16D#\JJ	.	.	.
16GG#\LL	4.ccn 4.f# 4.d#\	.	.
16D#\	.	.	.
16G#\	.	.	.
16D#\	.	.	.
16GG#\	.	.	.
16D#\JJ	.	.	.
=118	=118	=118	=118
16GGn\LL	4.ccn 4.fn 4.dn\	.	.
16Dn\	.	.	.
16Gn\	.	.	.
16D\	.	.	.
16GG\	.	.	.
16D\JJ	.	.	.
16GG\LL	4.b 4.f 4.d\	.	.
16D\	.	.	.
16G\	.	.	.
16D\	.	.	.
16GG\	.	.	.
16D\JJ	.	.	.
16FF#\LL	4.b 4.f#X 4.c#X\	.	.
16C#\	.	.	.
16F#\	.	.	.
16C#\	.	.	.
16FF#\	.	.	.
16C#\JJ	.	.	.
16FF#\LL	4.a#X 4.f# 4.c#\)	.	.
16C#\	.	.	.
16F#\	.	.	.
16C#\	.	.	.
16FF#\	.	.	.
16C#\JJ	.	.	.
=119	=119	=119	=119
16DD/LL	[4.a [4.f#X [4.cn/	.	sf >
16AA/	.	.	.
16D/	.	.	.
16AA/	.	.	.
16DD/	.	.	.
16AA/JJ	.	.	.
16DD/LL	8a]L 8f#] 8c/]	.	]
16AA/	.	.	.
16D/	8g#/	.	.
16AA/	.	.	.
16DD/	8f#/J	.	.
16AA/JJ	.	.	.
16CC#/LL	[4.cc#X [4.a [4.f# [4.c#X^^/	.	.
16FF#/	.	.	.
16AA/	.	.	.
16C#/	.	.	.
16AA/	.	.	.
16FF#/JJ	.	.	.
16CC#/LL	8cc#]L 8a] 8f#] 8c#/]	.	>
16EE#X/	.	.	.
16GG#/	8g# 8e#X 8B/	.	]
16C#/	.	.	.
16GG#/	8a/J	.	.
16EE#/JJ	.	.	.
=120	=120	=120	=120
16FF#\LL	(8f#L 8c# 8A/	.	.
16F#\	.	.	.
16C#\	8f# 8c# 8A/	.	.
16F#\	.	.	.
16C#\	8g#/J)	.	.
16F#\JJ	.	.	.
16FF#\LL	(8a/L	.	.
16F#\	.	.	.
16C#\	8a 8f# 8c#/	.	.
16F#\	.	.	.
16C#\	8b/J)	.	.
16F#\JJ	.	.	.
16FF#\LL	(8cc#L 8a 8f#\	.	.
16F#\	.	.	.
16C#\	8cc# 8a 8f#\	.	.
16F#\	.	.	.
16C#\	8ff#\J)	.	.
16F#\JJ	.	.	.
16FF#\LL	(4dd 4b 4g# 4e#X^\	.	sf
16G#\	.	.	.
16C#\	.	.	.
16G#\	.	.	.
16C#\	8cc#\)	.	.
16G#\JJ	.	.	.
=121	=121	=121	=121
16FF#\LL	(8f#L 8c# 8A/	.	.
16F#\	.	.	.
16C#\	8f# 8c# 8A/	.	.
16F#\	.	.	.
16C#\	8g#/J)	.	.
16F#\JJ	.	.	.
16FF#\LL	(8a/L	.	.
16F#\	.	.	.
16C#\	8a 8f# 8c#/	.	.
16F#\	.	.	.
16C#\	8b/J)	.	.
16F#\JJ	.	.	.
16FF#\LL	(8cc#L 8a 8f#\	.	.
16F#\	.	.	.
16C#\	8cc# 8a 8f#\	.	.
16F#\	.	.	.
16C#\	8ff#\J)	.	.
16F#\JJ	.	.	.
16FF#\LL	(4dd 4b 4g# 4e#X^^^\	.	sf
16G#\	.	.	.
16C#\	.	.	.
16G#\	.	.	.
16C#\	8cc#\)	.	.
16G#\JJ	.	.	.
=122	=122	=122	=122
16EE\LL	8cc#L 8b-X 8gn\	.	f
16E\	.	.	.
16C#\	8cc# 8b- 8g\	.	.
16E\	.	.	.
16AA#X\	8ggn\J	.	.
16E\JJ	.	.	.
16EE\LL	4ff# 4b- 4g^^\	.	<
16E\	.	.	.
16C#\	.	.	.
16E\	.	.	.
16AA#\	8ee 8b- 8g\	.	.
16E\JJ	.	.	.
16FF#\LL	(8dd#XL 8ccn 8a\	.	.
16D#X\	.	.	.
16Cn\	8dd# 8cc 8a\	.	.
16D#\	.	.	.
16AA#\	8aa\J	.	[
16D#\JJ	.	.	.
16FF#\LL	4gg#X 4cc 4a\	.	.
16D#\	.	.	.
16C\	.	.	.
16D#\	.	.	.
16AA#\	8ff# 8cc 8a\)	.	.
16D#\JJ	.	.	.
=123	=123	=123	=123
!	!LO:TX:b:i:t=Piu stretto	!	!
16FFn/LL	(8gg#XL 8ffn 8ddn\	.	.
16Dn/	.	.	.
16BB/	8gg# 8ff 8dd\	.	.
16D/	.	.	.
16GG#/	8bb\J)	.	.
16D/JJ	.	.	.
16FF/LL	(8bbL 8gg# 8dd\	.	.
16Dn/	.	.	.
16BB/	8bb 8gg# 8dd\	.	.
16D/	.	.	.
16GG#/	8ddd\J)	.	.
16D/JJ	.	.	.
*	*8va	*	*
16EE/LL	(8dddL 8bb 8gg#\	.	.
16D/	.	.	.
16BB/	8ddd 8bb 8gg#\	.	.
16D/	.	.	.
16GG#/	8ggg#\J)	.	.
16D/JJ	.	.	.
16EE/LL	(8ggg#L 8ddd 8bb\	.	<
16D/	.	.	.
16BB/	8ggg# 8ddd 8bb\	.	[
16D/	.	.	.
16GG#/	8bbb\J)	.	.
16D/JJ	.	.	.
=124	=124	=124	=124
16DD#X/LL	8ggg#L 8ddd#X 8bb\	.	f
16D#X/	.	.	.
16BB/	8ggg# 8ddd# 8bb\	.	.
16D#/	.	.	.
16GG#/	8bbb\J	.	.
16D#/JJ	.	.	.
16DD#/LL	4aaa#X 4ddd# 4bb^^\	.	.
16D#/	.	.	.
16BB/	.	.	.
16D#/	.	.	.
16GG#/	8ggg# 8ddd# 8bb\	.	.
16D#/JJ	.	.	.
16DD#/LL	8gggn\L	.	.
16D#/	.	.	.
16C#/	8ccc# 8aa#X 8ggn\	.	.
16D#/	.	.	.
16AA#X/	8ddd#J 8aa# 8gg\	.	.
16D#/JJ	.	.	.
16DD#/LL	4eee 4aa# 4gg^^\	.	.
16D#/	.	.	.
16C#/	.	.	.
16D#/	.	.	.
16AA#/	8ddd# 8aa# 8gg\	.	.
16D#/JJ	.	.	.
=125	=125	=125	=125
16DD#X/LL	8fff#L 8cccn 8aa\	.	p
16D#X/	.	.	.
16Cn/	8fff# 8ccc 8aa\	.	.
16D#/	.	.	.
16AAn/	8aaaJ 8ccc 8aa\	.	.
16D#/JJ	.	.	.
16DD#/LL	4ggg# 4ccc 4aa\	.	.
16D#/	.	.	.
16C/	.	.	.
16D#/	.	.	.
16AAn/	8fff# 8ccc 8aa\	.	.
16D#/JJ	.	.	.
*	*X8va	*	*
!	!LO:TX:a:t=loco	!	!
16DD#/LL	8fffn\L	.	.
16BB/	.	.	.
16GG#/	8bb 8ffn\	.	.
16BB/	.	.	.
16FFn/	8cccnJ 8ff\	.	.
16BB/JJ	.	.	.
16DD#/LL	(4dddn 4ff^^\	.	.
16BB/	.	.	.
16GG#/	.	.	.
16BB/	.	.	.
16FF/	8ccc'\)	.	.
16BB/JJ	.	.	.
=126	=126	=126	=126
16FF#\LL	8ff#XL 8cc# 8a\	.	ff
16F#\	.	.	.
16C#\	(8ff# 8cc# 8a\	.	.
16F#\	.	.	.
16FF#\	8gg#J 8cc# 8a\)	.	.
16F#\JJ	.	.	.
16FF#\LL	8aaL 8cc# 8a'\	.	.
16F#\	.	.	.
16C#\	(8ff# 8cc# 8a\	.	.
16F#\	.	.	.
16FF#\	8gg#J 8cc# 8a\	.	.
16F#\JJ	.	.	.
16BBB/LL	8aaL 8cc# 8a\)	.	.
16BB/	.	.	.
16FF#/	(8dd 8b 8f#\	.	.
16BB/	.	.	.
16DD/	8eeJ 8b 8f#\	.	.
16BB/JJ	.	.	.
16BBB/LL	8ff#L 8b 8f#\	.	.
16BB/	.	.	.
16FF#/	8ee 8b 8f#\	.	.
16BB/	.	.	.
16DD/	8ddJ 8b 8f#\)	.	.
16BB/JJ	.	.	.
=127	=127	=127	=127
16CC#/LL	8cc#L 8a 8f#\	.	<
16C#/	.	.	.
16AA/	8aa 8cc# 8a'\	.	[
16C#/	.	.	.
16FF#/	8gg#J 8cc# 8a'\	.	.
16C#/JJ	.	.	.
16CC#/LL	8ggnL 8cc# 8a'\	.	.
16C#/	.	.	.
16AA/	8ff# 8cc# 8a'\	.	.
16C#/	.	.	.
16FF#/	8ffnJ 8cc# 8a'\	.	.
16C#/JJ	.	.	.
16CC#/LL	8eeL 8cc# 8a'\	.	>
16C#/	.	.	.
16GG#/	8dd#X 8a'\	.	.
16C#/	.	.	.
16EE#X/	8ddnJ 8a'\	.	.
16C#/JJ	.	.	.
16CC#/LL	8cc#L 8e#X'\	.	.
16C#/	.	.	.
16GG#/	8b 8e#^^\	.	.
16C#/	.	.	.
16EE#/	8g#J 8e#'\	.	]
16C#/JJ	.	.	.
=128	=128	=128	=128
!	!LO:TX:b:i:t=marcato	!	!
16FF#\LL	(8f#/L	.	.
16F#\	.	.	.
16C#\	8f# 8c# 8A/	.	.
16F#\	.	.	.
16C#\	8g#/J	.	.
16F#\JJ	.	.	.
16FF#\LL	8aL 8f# 8c#/	.	.
16F#\	.	.	.
16C#\	8a 8f# 8c#/	.	.
16F#\	.	.	.
16C#\	8b/J	.	.
16F#\JJ	.	.	.
16FF#\LL	8cc#L 8a 8f#\	.	.
16F#\	.	.	.
16C#\	8cc# 8a 8f#\	.	.
16F#\	.	.	.
16C#\	8ff#\J	.	.
16F#\JJ	.	.	.
16FF#\LL	4dd 4b 4g# 4e#X^^\	.	.
16G#\	.	.	.
16C#\	.	.	.
16G#\	.	.	.
16C#\	8cc#\)	.	.
16G#\JJ	.	.	.
=129	=129	=129	=129
16FF#\LL	(8f#L 8c# 8A/	.	.
16F#\	.	.	.
16C#\	8f# 8c# 8A/	.	.
16F#\	.	.	.
16C#\	8g#/J	.	.
16F#\JJ	.	.	.
16FF#\LL	8aL 8f# 8c#/	.	.
16F#\	.	.	.
16C#\	8a 8f# 8c#/	.	.
16F#\	.	.	.
16C#\	8b/J	.	.
16F#\JJ	.	.	.
16FF#\LL	8cc#L 8a 8f#\	.	.
16F#\	.	.	.
16C#\	8cc# 8a 8f#\	.	.
16F#\	.	.	.
16C#\	8ff#\J	.	.
16F#\JJ	.	.	.
16FF#\LL	4ff# 4cc# 4b^^\	.	.
16G#\	.	.	.
16C#\	.	.	.
16G#\	.	.	.
16C#\	8ee#X\)	.	.
16G#\JJ	.	.	.
=130	=130	=130	=130
!	!LO:TX:a:t=meno mosso e perdendosi	!	!
16FF#\LL	8f#L 8c# 8A#X/	.	p
16F#\	.	.	.
16C#\	8f# 8c# 8A#/	.	.
16F#\	.	.	.
16FF#\	8g#J 8c# 8A#/	.	.
16F#\JJ	.	.	.
16FF#\LL	8a#XL 8c# 8A#/	.	.
16F#\	.	.	.
16C#\	8f# 8c# 8A#/	.	.
16F#\	.	.	.
16FF#\	8g#J 8c# 8A#/	.	.
16F#\JJ	.	.	.
16FF#\LL	8a#L 8c# 8A#/	.	.
16F#\	.	.	.
16C#\	8f# 8c# 8A#/	.	.
16F#\	.	.	.
16FF#\	8g#J 8c# 8A#/	.	.
16F#\JJ	.	.	.
16FF#\LL	8a#L 8c# 8A#/	.	.
16F#\	.	.	.
16C#\	8f# 8c# 8A#/	.	.
16F#\	.	.	.
16FF#\	8g#J 8c# 8A#/	.	.
16F#\JJ	.	.	.
=131	=131	=131	=131
*8ba	*	*	*
*^	*	*	*
16FFF#/LL	8FFF#\L	2.a#X 2.f# 2.c# 2.A#X/	.	.
16FF#/	.	.	.	.
16AAA#X/	8AAA#\	.	.	.
16FF#/	.	.	.	.
16CC#/	8CC#\J	.	.	.
16FF#/JJ	.	.	.	.
16FFF#/LL	8FFF#\L	.	.	.
16FF#/	.	.	.	.
16AAA#/	8AAA#\	.	.	.
16FF#/	.	.	.	.
16CC#/	8CC#\J	.	.	.
16FF#/JJ	.	.	.	.
*v	*v	*	*	*
*X8ba	*	*	*
*^	*	*	*
[4.FFF#/	4.ryy	4.a# [4.f# [4.c# [4.A#/	.	pp
4FFF#/]	4.ryy	4.a# 4.f#_ 4.c#_ 4.A#/_	.	.
8FFF#/	.	.	.	.
*v	*v	*	*	*
=132	=132	=132	=132
2.FFF#;/	2.a#X 2.f#] 2.c#] 2.A#;/]	.	.
2.r	2.r	.	.
=70	=70	=70	=70
*	*^	*	*
*	*	*ped	*	*
4.D 4.DD/	(4ff#/	8b\L	.	.
.	.	8f#\	.	.
.	8ff#/	8ff#\J	.	.
4d: 4B: 4F#: 4D:\	4gg#/	8b\L	.	p
.	.	8f#\	.	.
*	*	*Xped	*	*
16r	8ff#/)	8ff#\J	.	.
16D 16DD/	.	.	.	.
4.C# 4.CC#/	4.ryy	8eeL 8a\	.	.
.	.	8e\	.	.
.	.	8eeJ 8a\	.	.
4.D 4.DD/	(4ff#/	8a\L	.	>
.	.	8f#\	.	.
.	8b/)	8a\J	.	.
=71	=71	=71	=71	=71
4.E 4.EE/	4cc#/	8a\L	.	p
.	.	8e\	.	.
.	8cc#/	8a\J	.	.
4B: 4G#: 4E:\	4b/	8g#\L	.	.
.	.	8d\	.	.
8r	8cc#/	8e\J	.	.
4A 4AA\	8a/	8c#\	.	.
.	(8c#/L	4ryy	.	.
8r	8f#/J	.	.	.
4.r	8e/L	4.ryy	.	.
.	8c#/	.	.	.
.	8A/J)	.	.	.
*	*v	*v	*	*
=72	=72	=72	=72
!	!LO:TX:b:t=m.g.	!	!
!	!LO:TX:b:t=pesante	!	!LO:DY:a
*ped	*	*	*
*	*	*	*^
!	!	!	!LO:DY:a	!LO:DY:b
8EE\	4.B</	.	pp	f
*	*	*	*v	*v
(8g#>L 8e>/	.	.	.
8b> 8g#>/	.	.	.
8ee>/	4B</	.	.
8b> 8g#>/	.	.	.
8g#>J 8e>/)	16r<	.	.
*Xped	*	*	*
.	16B</	.	.
*ped	*	*	*
8CC#\	4.c#</	.	.
(8g#>L 8e#X>/	.	.	.
8cc#> 8g#>/	.	.	.
8ee#X>/	4B</	.	.
8cc#> 8g#>/	.	.	.
8g#>J 8e#>/)	16r<	.	.
.	16c#</	.	.
*Xped	*	*	*
=73	=73	=73	=73
*^	*	*	*
8FF#\	4.ryy	4.A</	.	.
(<8f#>L 8c#>/	.	.	.	.
8cc#>J 8a>/	.	.	.	.
8CC#\	4.ryy	4G#</	.	.
8g#>L 8e#X> 8c#>/	.	.	.	.
8cc#>J 8g#> 8e#>/)	.	16r<	.	.
.	.	16F#</	.	.
4FF#\	8ryy	4.F#</	.	.
.	(8f#>L 8c#>/	.	.	.
8ryy	8a> 8f#>/	.	.	.
4ryy	8cc#> 8a>/	16r<	.	.
!	!	!	!	!LO:HP:b=2
.	.	16F#</LL	.	<
.	8a> 8f#>/	16G#</	.	.
.	.	16F#</	.	.
8ryy	8f#>J 8c#>/)	16E#X</	.	.
.	.	16G#</JJ	.	[
*v	*v	*	*	*
!!LO:LB:g=original
=74	=74	=74	=74
.	8qF#</	.	.
*	*ped	*	*
8BBB\	4.d</	.	.
(8b>L 8f#>/	.	.	.
8dd> 8b>/	.	.	.
8ff#>/	4d</	.	.
8dd> 8b>/	.	.	.
8b>J 8f#>/)	(>8d</	.	.
8DD\	4.F#</)	.	.
(8f#>L 8d>/	.	.	.
8b> 8f#>/	.	.	.
8dd> 8b>/	4F#</	.	.
8b> 8f#>/	.	.	.
8f#>J 8d>/)	16r<	.	.
.	16G#</	.	.
=75	=75	=75	=75
8EE\	[>2G#</	.	.
8g#>L 8e>/	.	.	.
8b> 8g#>/	.	.	.
8ee>/	.	.	.
8b> 8g#>/	(<32G#</LLL]	.	.
.	32A</	.	.
.	32A#X</	.	.
.	32B</	.	.
*	*^	*	*
8g#>J 8e>/	32An</	8ryy	.	.
.	32G#</	.	.	.
.	32A</	.	.	.
.	32F#</JJJ)	.	.	.
*	*v	*v	*	*
8EE\	[<4.E</	.	.
8g#>L 8e>/	.	.	.
8b> 8g#>/	.	.	.
8ee> 8b>/	4E</]	.	.
8b> 8g#>/	.	.	.
8g#>J 8e>/	(8E</	.	.
=76	=76	=76	=76
*	*	*	*^
!	!	!	!LO:DY:a	!LO:DY:b
8AA\	4.c#</)	.	pp	f
*	*	*	*v	*v
(8a>L 8e>/	.	.	.
8cc#> 8a>/	.	.	.
8ee> 8cc#>/	4c#</	.	.
8cc#> 8a>/	.	.	.
8a>J 8e>/)	8c#</	.	.
8EE\	(<4.B</	.	.
8b>L 8g#> 8e>/	.	.	.
8ee>J 8b> 8g#>/	.	.	.
8FF#\	4.c#</	.	.
8cc#>L 8a#X> 8f#>/	.	.	.
8ee>J 8cc#> 8a#>/	.	.	.
=77	=77	=77	=77
8BBB\	4.d</	.	sf
(8dd>L 8b>/	.	.	.
8b>J 8f#>/	.	.	.
8g#>/L	4e</)	.	.
8b> 8g#>/	.	.	.
8ee>/J)	16r<	.	.
.	16B</	.	.
8AA\	4.c#</	.	.
(8cc#>L 8an>/	.	.	.
8ee> 8cc#>/)	.	.	.
!LO:TX:a:t=|	!	!	!
8aa>`>/J	[4a^\	.	sf
!LO:TX:b:t=m.g.	!	!	!
8EL 8C# 8AA\	.	.	.
!	!LO:TX:a:t=P:problem=mixed beam	!	!
8AJ 8E 8C#\	16a\LL]	.	.
.	16c#</JJ	.	.
=78	=78	=78	=78
*ped	*	*	*
!	!LO:TX:a:t=m.g.	!	!
8DD\	4.B</	.	sf <
!LO:TX:a:t=dolce	!	!	!
(8f#>L 8d>/	.	.	.
8b>J 8f#>/	.	.	.
8r>	4c#</	.	.
8dd>L 8b>/	.	.	.
*Xped	*	*	*
8b>J 8f#>/)	8d</	.	[
8EE\	[4.c#</	.	>
*ped	*	*	*
(8a>L 8e>/	.	.	.
8cc#> 8a>/	.	.	.
8ee> 8cc#>/	4c#</]	.	.
8cc#> 8a>/	.	.	.
8a>J 8e>/)	16r<	.	.
.	16c#</	.	]
*Xped	*	*	*
=79	=79	=79	=79
8EE\	4B</	.	.
(8g#>L 8e>/	.	.	.
8b> 8g#>/	16r<	.	.
.	16A#X</	.	.
!	!	!	!LO:HP:b=2
8ee> 8g#>/	4B</	.	>
8b> 8g#>/	.	.	.
8g#>J 8e>/)	16r<	.	.
.	16c#</	.	.
8AA\	8An</	.	.
8c#L 8A 8E\	8r	.	.
8eJ 8c# 8A\	8r	.	.
*ped	*	*	*
!	!LO:TX:a:t=m.d.	!	!
8FF#/	(4.a#X\	.	.
8c#L 8A#X 8F#\	.	.	.
8eJ 8c# 8F#\	.	.	.
*Xped	*	*	*
=80	=80	=80	=80
*ped	*	*	*
8DD/	4cc#^^\	.	.
8BL 8F# 8D\	.	.	.
8dJ 8B 8F#\	8b\)	.	.
*Xped	*	*	*
8EE/	(>8.an/L	.	.
8BL 8G# 8E\	.	.	.
.	16g#/L	.	.
8dJ 8B 8G#\	16f#/	.	.
.	16e/JJ	.	.
.	(8qe/	.	.
8AA/	4.a/))	.	.
8c#L 8A 8E\	.	.	.
8eJ 8c# 8A\	.	.	.
!	!	!	!LO:DY:rj
8FF#/	4.a#X^t/	.	sf
*ped	*	*	*
8c#L 8A#X 8F#\	.	.	.
8eJ 8c# 8F#\	.	.	.
*Xped	*	*	*
=81	=81	=81	=81
!	!LO:TX:b:t=com dolcezza	!	!
!	!LO:TUP:a	!	!
8DD/	(56%3b\LL	.	.
*ped	*	*	*
.	56%3cc#\	.	.
.	56%3b\	.	.
8BL 8F# 8D\	.	.	.
.	56%3a#X\	.	.
.	56%3b\	.	.
*Xped	*	*	*
8dJ 8B 8F#\	.	.	.
.	8qb/	.	.
.	56%3gg#\	.	.
.	56%3ff#\JJ	.	.
*ped	*	*	*
8EE/	16ee\LL	.	.
.	16cc#\	.	.
8BL 8G# 8E\	16dd\	.	p
.	16b\	.	.
8dJ 8B\	16g#\	.	.
.	16e\JJ	.	.
*Xped	*	*	*
8C#\L	4.an\)	.	.
8A 8E\	.	.	.
8c# 8A\	.	.	.
8e 8c#\	(4a\	.	.
8c# 8A\	.	.	.
8AJ 8E\	8b\	.	.
!!LO:PB:g=original
=82	=82	=82	=82
!	!LO:TX:b:t=ritard	!	!
8GG#\L	(4.cc#\)	.	.
8B 8G#\	.	.	.
8c#J 8B\	.	.	.
8e#XL 8c#\	4.cc#\	.	.
8c# 8B\	.	.	.
8BJ 8G#\	.	.	.
16FF#\LL	8f#/)	.	.
16C#\	.	.	.
16A\	8r	.	.
16C#\	.	.	.
16A\	8r	.	.
16C#\JJ	.	.	.
16FF#\LL	4.r	.	.
16C#\	.	.	.
16A\	.	.	.
16C#\	.	.	.
16A\	.	.	.
16C#\JJ	.	.	.
=83||	=83||	=83||	=83||
*k[f#c#g#]	*k[f#c#g#]	*	*
*M12/8	*M12/8	*	*
!	!LO:TX:a:t=Tempo 1.° con agitazione	!	!
16FF#\LL	8r	.	p
16C#\	.	.	.
16A\	(8f#/L	.	.
16C#\	.	.	.
16FF#\	8g#/J)	.	.
16C#\JJ	.	.	.
16FF#\LL	8r	.	.
16C#\	.	.	.
16A\	(8a/L	.	.
16C#\	.	.	.
16FF#\	8b/J)	.	.
16C#\JJ	.	.	.
16FF#\LL	(8cc#\L	.	.
16C#\	.	.	.
16A\	8cc#\	.	.
16C#\	.	.	.
16FF#\	8ff#\J	.	.
16C#\JJ	.	.	.
16GG#\LL	4ee^<\)	.	sf
16E\	.	.	.
16G#\	.	.	.
16E\	.	.	.
16GG#\	8b\	.	.
16E\JJ	.	.	.
!!LO:LB:g=original
=84	=84	=84	=84
!	!LO:TX:b:t=ten	!	!
16FF#\LL	[4.cc#\	.	.
16C#\	.	.	.
16A\	.	.	.
16C#\	.	.	.
16FF#\	.	.	.
16C#\JJ	.	.	.
16C#\LL	8cc#\L]	.	.
16E#X\	.	.	.
16G#\	(8g#\	.	.
16E#\	.	.	.
16C#\	8b\J	.	.
16E#\JJ	.	.	.
16FF#/LL	8a\L	.	>
16C#/	.	.	.
16F#/	16a\L	.	.
16A/	16g#\J	.	.
16F#/	8f#\J)	.	.
16C#/JJ	.	.	.
16FF#/LL	8r	.	.
16C#/	.	.	.
16F#/	(8f#/L	.	.
16A/	.	.	.
16F#/	8c#/J)	.	.
16C#/JJ	.	.	.
=85	=85	=85	=85
*^	*	*	*
16FF#/LL	2.ryy	8r	.	.
16C#/	.	.	.	.
16A/	.	(8f#/L	.	<
16C#/	.	.	.	.
16FF#/	.	8g#/J)	.	.
16C#/JJ	.	.	.	.
16FF#/LL	.	8a/	.	.
16C#/	.	.	.	.
16A/	.	(8a/L	.	.
16C#/	.	.	.	.
16FF#/	.	8b/J)	.	.
16C#/JJ	.	.	.	.
16FF#/LL	4.ryy	8.cc#^^\L	.	[
16C#/	.	.	.	.
16A/	.	.	.	.
16C#/	.	(16aa\L	.	.
16FF#/	.	16gg#\	.	.
16C#/JJ	.	16ff#\JJ	.	.
16GG#/LL	4GG#\	4ee#X\)	.	.
16D/	.	.	.	.
16A/	.	.	.	.
16D/	.	.	.	.
16AA/	8AA\	[8ff#^^\	.	.
16A/JJ	.	.	.	.
!!LO:LB:g=original
=86	=86	=86	=86	=86
!	!	!LO:TX:b:t=espres	!	!
16AA#X/LL	4AA#\	(8ff#\L]	.	.
16F#/	.	.	.	.
16A#X/	.	16ee\L	.	.
16F#/	.	16dd\J	.	.
16AA#/	8AA#\	8cc#\J)	.	.
16A#/JJ	.	.	.	.
16BB/LL	4ryy	(8ee^^\L	.	.
16F#/	.	.	.	.
16B/	.	16dd\L	.	.
16F#/	.	16cc#\J	.	.
16BB/	8ryy	8b\J)	.	.
16F#/JJ	.	.	.	.
16C#/LL	4ryy	(8cc#^^\L	.	.
16E#X/	.	.	.	.
16G#/	.	16b\L	.	.
16c#/	.	16an\J	.	.
16G#/	8ryy	8g#\J)	.	.
16E#/JJ	.	.	.	.
16F#/LL	4ryy	(8b^^\L	.	.
16A#/	.	.	.	.
16c#/	.	16a\L	.	.
16A#/	.	16g#\J	.	.
16F#/	8ryy	[8f#^^\J)	.	.
16A#/JJ	.	.	.	.
*v	*v	*	*	*
=87	=87	=87	=87
16F#\LL	(8f#/L]	.	p
16A\	.	.	.
16c#\	8f#/	.	.
16A\	.	.	.
16F#\	8g#/J	.	.
16A\JJ	.	.	.
!	!LO:TX:b:t=semplice	!	!
16C#\LL	8e#X/L	.	.
16G#\	.	.	.
16c#\	8e#/	.	.
16G#\	.	.	.
16C#\	8f#/J	.	.
16G#\JJ	.	.	.
16C#\LL	8g#\L	.	.
16E#X\	.	.	.
16G#\	8cc#\	.	.
16B\	.	.	.
16E#\	8g#\J	.	.
16B\JJ	.	.	.
16F#\LL	8b\L	.	.
16A\	.	.	.
16c#\	16a\L	.	.
16A\	16g#\J	.	.
16F#\	[8f#\J)	.	.
16A\JJ	.	.	.
!!LO:LB:g=original
=88	=88	=88	=88
16F#\LL	(>8f#/L]	.	.
16A\	.	.	.
16c#\	8f#/	.	.
16A\	.	.	.
16F#\	8g#/J	.	.
16A\JJ	.	.	.
16C#\LL	8e#X/L	.	.
16G#\	.	.	.
16c#\	8e#/	.	.
16G#\	.	.	.
16C#\	8f#/J	.	.
16G#\JJ	.	.	.
16C#\LL	8g#/L	.	.
16E#X\	.	.	.
16G#\	8cc#/	.	.
16B\	.	.	.
16E#\	8g#/J	.	.
16B\JJ	.	.	.
16F#\LL	(8b^^</L	.	.
16A\	.	.	.
16c#\	16a/L	.	.
16A\	16g#/J	.	.
16F#\	8f#/J))	.	.
16A\JJ	.	.	.
=89	=89	=89	=89
*	*ped	*	*
16F#\LL	8r	.	.
16A\	.	.	.
16c#\	8f#/L	.	p
16A\	.	.	.
16F#\	8c#/J	.	.
16A\JJ	.	.	.
16FF#\LL	8r	.	.
16C#\	.	.	.
16A\	(8f#/L	.	.
16C#\	.	.	.
16A\	8g#/J	.	.
16C#\JJ	.	.	.
16FF#\LL	8a\L)	.	.
16C#\	.	.	.
16A\	(8a\	.	.
16C#\	.	.	.
16A\	8b\J	.	.
16C#\JJ	.	.	.
16FF#\LL	8.cc#^^\L)	.	<
16C#\	.	.	.
16A\	.	.	.
16C#\	(16aa\L	.	.
16A\	16gg#\	.	.
16C#\JJ	16ff#\JJ	.	[
!!LO:LB:g=original
=90	=90	=90	=90
*^	*	*	*
16AA/LL	4AA\	4ee#X\)	.	sf
16D/	.	.	.	.
16A/	.	.	.	.
16D/	.	.	.	.
16AA/	8AA\	[8ff#^<\	.	.
16A/JJ	.	.	.	.
16AA#X/LL	4AA#\	8ff#\L]	.	.
16F#/	.	.	.	.
16A#X/	.	16een\L	.	.
16F#/	.	16dd\J	.	.
16AA#/	8AA#\	8cc#\J	.	.
16A#/JJ	.	.	.	.
16BB/LL	4BB\	8ee^^\L	.	.
16F#/	.	.	.	.
16B/	.	16dd\L	.	.
16F#/	.	16cc#\J	.	.
16BB/	8BB\	8b\J	.	.
16F#/JJ	.	.	.	.
16C#/LL	4.ryy	8cc#^^\L	.	.
16E#X/	.	.	.	.
16G#/	.	16b\L	.	.
16E#/	.	16an\J	.	.
16B/	.	8g#\J	.	.
16E#/JJ	.	.	.	.
*v	*v	*	*	*
=91	=91	=91	=91
*	*ped	*	*
16F#\LL	8b^^\L	.	.
16A\	.	.	.
16c#\	16a\L	.	.
16A\	16g#\J	.	.
16F#\	8f#\J	.	.
16A\JJ	.	.	.
16FF#\LL	8r	.	.
16C#\	.	.	.
16A\	8f#/L	.	.
16C#\	.	.	.
16A\	8c#/J	.	.
16C#\JJ	.	.	.
16FF#\LL	8r	.	.
16C#\	.	.	.
16A\	(8f#/L	.	.
16C#\	.	.	.
16A\	8g#/J)	.	.
16C#\JJ	.	.	.
16FF#\LL	8r	.	.
16C#\	.	.	.
16A\	(8a/L	.	.
16C#\	.	.	.
16A\	8b/J)	.	.
16C#\JJ	.	.	.
!!LO:LB:g=original
=92	=92	=92	=92
16AA\LL	8.cc#\L	.	f
16C#\	.	.	.
16F#\	.	.	.
16A\	(16ccc#m\L	.	.
16F#\	16bb\	.	.
16C#\JJ	16aa\JJ	.	.
16BB\LL	16gg#\LL	.	.
16D\	16ff#\	.	.
16G#\	16ee\	.	.
16B\	16dd\	.	.
16G#\	16cc#\	.	.
16D\JJ	16b\JJ)	.	.
16C#\LL	16a\LL	.	.
16c#\	16b\JJ	.	.
16F#\	[4cc#\	.	rfz
16c#\	.	.	.
16A\	.	.	.
16c#\JJ	.	.	.
16C#\LL	16cc#\LL]	.	.
16c#\	16b#X\JJ	.	.
16E#X\	[4cc#\	.	.
16c#\	.	.	.
16G#\	.	.	.
16c#\JJ	.	.	.
=93	=93	=93	=93
16C#\LL	16cc#\LL]	.	.
16c#\	16b#X\JJ	.	.
16F#\	[4cc#\	.	rfz
16c#\	.	.	.
16A\	.	.	.
16c#\JJ	.	.	.
16C#\LL	16cc#\LL]	.	.
16c#\	16b#\JJ	.	.
16E#X\	4cc#\	.	.
16c#\	.	.	.
*	*Xped	*	*
16G#\	.	.	.
16c#\JJ	.	.	.
16BB\LL	(<(>4.dd (<4.g# 4.e#X^^\	.	.
16G#\	.	.	.
16B\	.	.	.
16G#\	.	.	.
16BB\	.	.	.
16G#\JJ	.	.	.
!	!LO:TX:b:t=agitato	!	!
16AA\LL	8cc#L 8a) 8f#\))	.	.
16F#\	.	.	.
16A\	8cc# 8a 8f#\	.	.
16F#\	.	.	.
!	!LO:TX:b:t=ed	!	!
16AA\	8ff#J 8cc# 8a 8f#\	.	.
16F#\JJ	.	.	.
!!LO:PB:g=original
=94	=94	=94	=94
!	!LO:TX:b:t=accelerando	!	!
16BB\LL	(4.dd 4.g# 4.e#X^^\	.	.
16G#\	.	.	.
16B\	.	.	.
16G#\	.	.	.
16BB\	.	.	.
16G#\JJ	.	.	.
16AA\LL	8cc#L 8a 8f#\)	.	.
16F#\	.	.	.
16A\	8cc# 8a 8f#\	.	.
16F#\	.	.	.
16AA\	8ff#J 8cc# 8a 8f#\	.	.
16F#\JJ	.	.	.
16BB\LL	(4.dd 4.g# 4.e#^^\	.	.
16G#\	.	.	.
16B\	.	.	.
16G#\	.	.	.
16BB\	.	.	.
16G#\JJ	.	.	.
16AA\LL	8cc#L 8a 8f#\)	.	.
16F#\	.	.	.
16A\	8cc# 8a 8f#\	.	.
16F#\	.	.	.
16AA\	[8ff#J 8cc# 8a 8f#\	.	.
16F#\JJ	.	.	.
=95	=95	=95	=95
16GG#\LL	8ff#\L]	.	.
16E#X\	.	.	.
16G#\	8ee#X 8cc# 8b\	.	.
16E#\	.	.	.
16GG#\	8ff#J 8cc# 8b\	.	.
16E#/JJ	.	.	.
16EE#X\LL	4gg# 4b^^\	.	.
16C#\	.	.	.
16G#\	.	.	.
16C#\	.	.	.
16EE#\	8cc#\	.	f
16C#\JJ	.	.	.
16FF#\LL	(4.aa 4.cc# 4.a\	.	.
16F#\	.	.	.
16C#\	.	.	.
16F#\	.	.	.
16FF#\	.	.	.
16F#\JJ	.	.	.
16BB\LL	4gg# 4dd 4b\	.	.
16G#\	.	.	.
16D\	.	.	.
16G#\	.	.	.
16BB\	8ff#\)	.	.
16G#\JJ	.	.	.
!!LO:LB:g=original
=96	=96	=96	=96
16C#\LL	(4cc# 4a 4f#^^\	.	.
16F#\	.	.	.
16A\	.	.	.
16c#\	.	.	.
16F#\	16b#X\LL	.	.
16A\JJ	16cc#\JJ)	.	.
16C#\LL	(4dd 4g# 4e#X^^\	.	.
16E#X\	.	.	.
16G#\	.	.	.
16c#\	.	.	.
16G#\	8cc#\)	.	.
16E#\JJ	.	.	.
16FF#\LL	8f#/	.	.
16C#\	.	.	sf
!	!LO:TX:a:t=Tempo rubato	!	!
16A\	4.cc# 4.c#/	.	.
16C#\	.	.	.
16A\	.	.	.
16C#\JJ	.	.	.
16FF#\LL	.	.	.
16C#\	.	.	.
16G#\	[y4b#X [y4B#X/	.	sf
16C#\	.	.	.
16G#\	.	.	.
16C#\JJ	.	.	.
=97	=97	=97	=97
!	!LO:N:xstem:cue	!	!
16FF#\LL	8b#] 8B#/]	.	sf
16C#\	.	.	.
16A\	4cc# 4c#^^/	.	.
16C#\	.	.	.
16A\	.	.	.
16C#\JJ	.	.	.
16FF#\LL	8cc#L 8c#'/	.	<
16C#\	.	.	.
16A\	8ff# 8f#'/	.	.
16C#\	.	.	.
16A\	8gg#J 8g#'/	.	.
16C#\JJ	.	.	.
16FF#\LL	8aa 8a'\	.	[
16C#\	.	.	sf
16A\	[4ccc# [4cc#\	.	>
16C#\	.	.	.
16A\	.	.	.
16C#\JJ	.	.	.
16FF#\LL	(8ccc#]L 8cc#\]	.	.
16C#\	.	.	.
16G#\	8bb#X 8b#X\	.	]
16C#\	.	.	.
16G#\	8gg#J 8g#\)	.	.
16C#\JJ	.	.	.
!!LO:LB:g=original
=98	=98	=98	=98
16FF#\LL	[>4.ccc# [>4.cc#\	.	sf
16C#\	.	.	.
16A\	.	.	.
16C#\	.	.	.
16A\	.	.	.
16C#\JJ	.	.	.
16FF#\LL	4ccc#] 4cc#\]	.	>
16C#\	.	.	.
16A\	.	.	.
16C#\	.	.	.
16A\	4cc# 4c#/	.	]
16C#\JJ	.	.	.
16FF#\LL	.	.	.
16C#\	.	.	.
16A\	4.cc# 4.c#/	.	sf
16C#\	.	.	.
16A\	.	.	.
16C#\JJ	.	.	.
16FF#\LL	.	.	.
16C#\	.	.	.
16G#\	[y4b#X [y4B#X/	.	sf
16C#\	.	.	.
16G#\	.	.	.
16C#\JJ	.	.	.
=99	=99	=99	=99
!	!LO:N:xstem:cue	!	!
16FF#\LL	8b#] 8B#/]	.	.
16C#\	.	.	.
16A\	[4cc# [4c#/	.	.
16C#\	.	.	.
16A\	.	.	.
16C#\JJ	.	.	.
16FF#\LL	8cc#]L 8c#/]	.	<
16C#\	.	.	.
16A\	8ff# 8f#/	.	.
16C#\	.	.	.
16FFn\	8gg#J 8g#/	.	[
16C#\JJ	.	.	.
!	!LO:TX:b:t=ten.	!	!
16EE\LL	4.aa 4.a\	.	.
16C#\	.	.	.
16A\	.	.	.
16C#\	.	.	.
16EE\	.	.	.
16C#\JJ	.	.	.
16EE\LL	(8aaL 8a\	.	.
16BB\	.	.	.
16E\	8bb 8bn\	.	.
16BB\	.	.	.
16EE\	8eeJ 8e\)	.	.
16BB\JJ	.	.	.
!!LO:LB:g=original
=100	=100	=100	=100
!	!LO:TX:b:t=ten	!	!
.	8qee 8qe/	.	f
16AA\LL	2.ccc# 2.cc#\	.	.
16E\	.	.	.
16c#\	.	.	.
16E\	.	.	.
16AA\	.	.	.
16E\JJ	.	.	.
16AA\LL	.	.	.
16E\	.	.	.
16c#\	.	.	.
16E\	.	.	.
16AA\	.	.	.
16E\JJ	.	.	.
16AA\LL	4.ccc# 4.cc#\	.	.
16E\	.	.	.
16c#\	.	.	.
16E\	.	.	.
16AA\	.	.	.
16E\JJ	.	.	p
16GG#\LL	8ccc#L 8cc#\	.	.
16D#X\	.	.	.
16B#X\	8bb#X 8b#X\	.	.
16D#\	.	.	.
16GG#\	[>8gg#J [>8g#\	.	.
16D#\JJ	.	.	.
=101	=101	=101	=101
16GG#\LL	8gg#]L 8g#\]	.	<
16D#X\	.	.	.
16B#X\	8gg# 8g#\	.	.
16D#\	.	.	.
16GG#\	8aaJ 8a\	.	[
16D#\JJ	.	.	.
16GG#\LL	4.bbn 4.bn\	.	.
16Dn\	.	.	.
16G#\	.	.	.
16D\	.	.	.
16GG#\	.	.	.
16D\JJ	.	.	.
16GG#\LL	8r	.	.
16D\	.	.	.
16G#\	(8bbL 8b\	.	.
16D\	.	.	.
16GG#\	8bb#XJ 8b#X\)	.	.
16D\JJ	.	.	.
16EE#X\LL	8r	.	.
16C#\	.	.	.
16G#\	(8ccc#L 8cc#\	.	.
16C#\	.	.	.
16BBn\	8gg#J 8g#\)	.	.
16C#\JJ	.	.	.
!!LO:LB:g=original
=102	=102	=102	=102
16FF#\LL	8r	.	.
16C#\	.	.	.
16A\	(8ff#L 8f#\	.	.
16C#\	.	.	.
16FF#\	8gg#J 8g#\	.	.
16C#\JJ	.	.	.
16FF#\LL	[>4.aa [>4.a\)	.	sf
16C#\	.	.	.
16A\	.	.	.
16C#\	.	.	.
16FF#\	.	.	.
16C#\JJ	.	.	.
16FF#\LL	8aa] 8a\]	.	.
16C#\	.	.	.
16A\	4.aa 4.a\	.	.
16C#\	.	.	.
16FF#\	.	.	.
16C#\JJ	.	.	.
16DD/LL	.	.	.
16AA/	.	.	.
16D/	8gg#L 8g#\	.	.
16AA/	.	.	.
16DD/	8ff#J 8f#\	.	.
16AA/JJ	.	.	.
=103	=103	=103	=103
16CC#/LL	8ee#X 8e#X\	.	<
16GG#/	.	.	.
16C#/	4ccc# 4cc#\	.	.
16GG#/	.	.	.
16CC#/	.	.	[
16GG#/JJ	.	.	.
16DD/LL	8aaL 8a\	.	>
16AA/	.	.	.
16D/	8gg# 8g#\	.	.
16AA/	.	.	.
16DD/	8ff#J 8f#\	.	]
16AA/JJ	.	.	.
16CC#/LL	8ee# 8e#\	.	<
16GG#/	.	.	.
16C#/	4ccc# 4cc#\	.	.
16GG#/	.	.	.
16CC#/	.	.	[
16GG#/JJ	.	.	.
16DD/LL	8aaL 8a\	.	>
16AA/	.	.	.
16D/	8gg# 8g#\	.	.
16AA/	.	.	.
16DD/	8ff#J 8f#\	.	]
16AA/JJ	.	.	.
!!LO:LB:g=original
=104	=104	=104	=104
16CC#/LL	8ee#X 8e#X\	.	sf
16GG#/	.	.	.
16C#/	4.ccc# 4.cc#\	.	p
16GG#/	.	.	.
16CC#/	.	.	.
16GG#/JJ	.	.	.
16CC#/LL	.	.	.
16GG#/	.	.	.
16C#/	4.ccc# 4.cc#\	.	.
16GG#/	.	.	.
16CC#/	.	.	.
16GG#/JJ	.	.	.
16CC#/LL	.	.	.
16GG#/	.	.	.
16C#/	4.cc# 4.c#/	.	p
16GG#/	.	.	.
16CC#/	.	.	.
16GG#/JJ	.	.	.
16CC#/LL	.	.	.
16GG#/	.	.	.
!	!LO:TX:b:t=rallen.	!	!
16C#/	4c#/	.	.
16GG#/	.	.	.
16CC#/	.	.	.
16GG#/JJ	.	.	.
=105	=105	=105	=105
16FF#\LL	8r	.	pp
16C#\	.	.	.
16F#\	(8f#/L	.	.
16A\	.	.	.
!	!LO:TX:b:t=a Tempo sotto voce	!	!
16F#\	8g#/J)	.	.
16C#\JJ	.	.	.
16FF#\LL	8a\	.	.
16C#\	.	.	.
16F#\	(8a\L	.	.
16A\	.	.	.
16F#\	8b\J)	.	.
16C#\JJ	.	.	.
16FF#\LL	(8cc#\L	.	.
16C#\	.	.	.
16F#\	8cc#\	.	.
16A\	.	.	.
16F#\	8ff#\J)	.	.
16C#\JJ	.	.	.
16GG#\LL	(4een^^\	.	.
16D\	.	.	.
16E\	.	.	.
16G#\	.	.	.
16E\	8b\)	.	.
16D\JJ	.	.	.
!!LO:PB:g=original
=106	=106	=106	=106
!	!LO:TX:b:t=ten	!	!
16AA\LL	([4.cc#^^\	.	.
16C#\	.	.	.
16E\	.	.	.
16A\	.	.	.
16E\	.	.	.
16A\JJ	.	.	.
16C#\LL	8cc#\L]	.	p
16E#X\	.	.	.
16G#\	8g#\	.	.
16E#\	.	.	.
16C#\	8b\J	.	.
16E#\JJ	.	.	.
16FF#\LL	8a/L)	.	>
16C#\	.	.	.
16F#\	16a/L	.	.
16A\	16g#/J	.	.
16F#\	8f#/J	.	.
16C#\JJ	.	.	.
16FF#\LL	8r	.	.
16C#\	.	.	.
16F#\	(8f#/L	.	.
16A\	.	.	.
16F#\	8c#/J)	.	.
16C#\JJ	.	.	.
=107	=107	=107	=107
16FF#\LL	8r	.	.
16C#\	.	.	.
16A\	(8f#/L	.	.
16C#\	.	.	.
16FF#\	8g#/J)	.	.
16C#\JJ	.	.	.
16FF#\LL	8a/	.	.
16C#\	.	.	.
16A\	(8a/L	.	<
16C#\	.	.	.
16FF#\	8b/J)	.	.
16C#\JJ	.	.	.
16FF#\LL	8.cc#^^\L	.	[
16C#\	.	.	.
16A\	.	.	.
16C#\	(16aa\L	.	.
16FF#\	16gg#\	.	.
16C#\JJ	16ff#\JJ	.	.
16GG#\LL	4ee#X\)	.	sf
16D\	.	.	.
16A\	.	.	.
16D\	.	.	.
16AA\	[8ff#^^\	.	.
16A\JJ	.	.	.
!!LO:LB:g=original
=108	=108	=108	=108
16AA#X\LL	8ff#\L]	.	.
16F#\	.	.	.
16A#X\	(16ee\L	.	.
16F#\	16dd\J	.	.
16AA#\	8cc#\J)	.	.
16A#\JJ	.	.	.
16BB\LL	8ee^^\L	.	.
16F#\	.	.	.
16B\	(16dd\L	.	.
16F#\	16cc#\J	.	.
16BB\	8b\J)	.	.
16F#\JJ	.	.	.
16C#\LL	8cc#^^\L	.	.
16E#X\	.	.	.
16G#\	(16b\L	.	.
16c#\	16an\J	.	.
16G#\	8g#\J)	.	.
16E#\JJ	.	.	.
16F#\LL	8b^^\L	.	.
16A#\	.	.	.
16c#\	(16a\L	.	.
16A#\	16g#\J	.	.
16F#\	[<8f#\J)	.	.
16A#\JJ	.	.	.
=109	=109	=109	=109
16F#\LL	(>8f#/L]	.	p
16A\	.	.	.
16c#\	8f#/	.	.
16A\	.	.	.
16F#\	8g#/J	.	.
16A\JJ	.	.	.
!	!LO:TX:b:t=dolce	!	!
16C#\LL	8e#X/L	.	.
16G#\	.	.	.
16c#\	8e#/	.	.
16G#\	.	.	.
16C#\	8f#/J	.	.
16G#\JJ	.	.	.
16C#\LL	8g#/L	.	.
16E#X\	.	.	.
16G#\	8cc#/	.	.
16B\	.	.	.
16E#\	8g#/J	.	.
16B\JJ	.	.	.
16F#\LL	8b/L	.	.
16A\	.	.	.
16c#\	16a/L	.	.
16A\	16g#/J	.	.
16F#\	[8f#/J)	.	.
16A\JJ	.	.	.
=110	=110	=110	=110
16F#\LL	(>8f#/L]	.	.
16A\	.	.	.
16c#\	8f#/	.	.
16A\	.	.	.
16F#\	8g#/J	.	.
16A\JJ	.	.	.
16C#\LL	8e#X/L	.	.
16G#\	.	.	.
16c#\	8e#/	.	.
16G#\	.	.	.
16C#\	8f#/J	.	.
16G#\JJ	.	.	.
16C#\LL	8g#/L	.	.
16E#X\	.	.	.
16G#\	8.cc#/	.	.
16B\	.	.	.
16E#\	.	.	.
16B\JJ	16g#/Jk	.	.
16F#\LL	8b/L	.	.
16A\	.	.	.
16c#\	16a/L	.	.
16A\	16g#/J	.	.
16F#\	[8f#^^</J)	.	.
16A\JJ	.	.	.
=111	=111	=111	=111
16F#\LL	8f#/L]	.	<
16A\	.	.	.
16c#\	8f#/	.	.
16A\	.	.	.
16F#\	8c#/J	.	.
16A\JJ	.	.	.
16FF#\LL	8r	.	.
16C#\	.	.	.
16A\	(8f#/L	.	.
16C#\	.	.	.
16A\	8g#/J)	.	.
16C#\JJ	.	.	.
16FF#\LL	8a/	.	.
16C#\	.	.	.
16A\	(8a/L	.	.
16C#\	.	.	.
16A\	8b/J)	.	.
16C#\JJ	.	.	.
16FF#\LL	8.cc#^^\L	.	[
16C#\	.	.	.
16A\	.	.	.
16C#\	(16aa\L	.	.
16A\	16gg#\	.	.
16C#\JJ	16ff#\JJ)	.	.
!!LO:LB:g=original
=112	=112	=112	=112
*^	*	*	*
16GG#/LL	4GG#\	(4ee#X\	.	sf
16D/	.	.	.	.
16A/	.	.	.	.
16D/	.	.	.	.
16AA/	8AA\	[8ff#^^\)	.	.
16A/JJ	.	.	.	.
16AA#X/LL	2.ryy	8ff#\L]	.	.
16F#\	.	.	.	.
16A#X/	.	(16een\L	.	.
16F#/	.	16dd\J	.	.
16AA#\	.	8cc#\J)	.	.
16F#/JJ	.	.	.	.
16BB\LL	.	8ee^^\L	.	.
16F#\	.	.	.	.
16B\	.	(16dd\L	.	.
16F#\	.	16cc#\J	.	.
16BB\	.	8b\J)	.	.
16F#\JJ	.	.	.	.
*v	*v	*	*	*
16C#\LL	8cc#^^\L	.	>
16E#X\	.	.	.
16B\	(16b\L	.	.
16E#\	16an\J	.	.
16B\	8g#\J)	.	.
16E#\JJ	.	.	.
=113	=113	=113	=113
16F#\LL	8b^^\L	.	.
16A\	.	.	.
16c#\	(16a\L	.	.
16A\	16g#\J	.	.
16F#\	8f#\J)	.	.
16A\JJ	.	.	.
16F#\LL	8b/L	.	pp
16A\	.	.	.
*ped	*	*	*
16c#\	16a/L	.	.
16A\	16g#/J	.	.
16F#\	8f#/J	.	.
16A\JJ	.	.	.
16FF#\LL	8r	.	<
16C#\	.	.	.
16A\	(8f#/L	.	.
16C#\	.	.	.
16A\	8g#/J)	.	.
16C#\JJ	.	.	.
16FF#\LL	(8a/L	.	.
16C#\	.	.	.
16A\	8a/	.	.
16C#\	.	.	.
16A\	8b/J)	.	[
16C#\JJ	.	.	.
!!LO:LB:g=original
=114	=114	=114	=114
16AA\LL	8.cc#^^\L	.	.
16A\	.	.	.
16F#\	.	.	.
16A\	(16ccc#\L	.	f
16C#\	16bb\	.	.
16F#\JJ	16aa\JJ	.	.
16BB\LL	16gg#\LL	.	.
16G#\	16ff#\	.	.
16D\	16ee\	.	.
16G#\	16dd\	.	.
16BB\	16cc#\	.	.
16G#\JJ	16b\JJ)	.	.
16C#\LL	16a\LL	.	.
16c#\	16b\JJ	.	.
16F#\	[4cc#\	.	sf
16c#\	.	.	.
16A\	.	.	.
16c#\JJ	.	.	.
16C#\LL	16cc#\LL]	.	.
16c#\	16b#X\JJ	.	.
16E#X\	[4cc#\	.	sf
16c#\	.	.	.
16G#\	.	.	.
16c#\JJ	.	.	.
=115	=115	=115	=115
16C#\LL	16cc#\LL]	.	.
16c#\	16b#X\JJ	.	.
16F#\	[4cc#\	.	sf
16c#\	.	.	.
16A\	.	.	.
16c#\JJ	.	.	.
16C#\LL	16cc#\LL]	.	.
16c#\	16b#\JJ	.	.
16E#X\	4cc#\	.	sf
16c#\	.	.	.
16G#\	.	.	.
16c#\JJ	.	.	.
16BB\LL	4.dd 4.g# 4.e#X^^\	.	f
16G#\	.	.	.
16B\	.	.	.
16G#\	.	.	.
16BB\	.	.	.
16G#\JJ	.	.	.
!	!LO:TX:b:t=agitato	!	!
16AA\LL	(8cc#L 8a 8f#\	.	.
16F#\	.	.	.
16A\	8cc# 8a 8f#\	.	.
16F#\	.	.	.
16AA\	8ff#J 8cc# 8a 8f#\)	.	.
16F#\JJ	.	.	.
!!LO:LB:g=original
=116	=116	=116	=116
16BB\LL	4.dd 4.g# 4.e#X^^\	.	.
16G#\	.	.	.
16B\	.	.	.
16G#\	.	.	.
16BB\	.	.	.
16G#\JJ	.	.	.
16AA\LL	(8cc#L 8a 8f#\	.	.
16F#\	.	.	.
16A\	8cc# 8a 8f#\	.	.
16F#\	.	.	.
16AA\	8ff#J 8cc# 8a 8f#\)	.	.
16F#\JJ	.	.	.
16BB\LL	(4.dd 4.g# 4.e#^^\	.	.
16G#\	.	.	.
16B\	.	.	.
16G#\	.	.	.
16BB\	.	.	.
16G#\JJ	.	.	.
16BB-X\LL	4.dd 4.g# 4.fn\	.	.
16G#\	.	.	.
16B-X\	.	.	.
16G#\	.	.	.
16BB-\	.	.	.
16G#\JJ	.	.	.
=117	=117	=117	=117
!	!LO:TX:b:t=stringendo	!	!
16AA\LL	4.dd 4.a 4.f#X\	.	.
16F#X\	.	.	.
16A\	.	.	.
16F#\	.	.	.
16AA\	.	.	.
16F#\JJ	.	.	.
16AA\LL	4.cc# 4.a 4.e\	.	.
16E\	.	.	.
16A\	.	.	.
16E\	.	.	.
16AA\	.	.	.
16E\JJ	.	.	.
16GG#\LL	4.cc# 4.f# 4.d#X\	.	.
16D#X\	.	.	.
16G#\	.	.	.
16D#\	.	.	.
16GG#\	.	.	.
16D#\JJ	.	.	.
16GG#\LL	4.ccn 4.f# 4.d#\	.	.
16D#\	.	.	.
16G#\	.	.	.
16D#\	.	.	.
16GG#\	.	.	.
16D#\JJ	.	.	.
!!LO:PB:g=original
=118	=118	=118	=118
16GGn\LL	4.ccn 4.fn 4.dn\	.	.
16Dn\	.	.	.
16Gn\	.	.	.
16D\	.	.	.
16GG\	.	.	.
16D\JJ	.	.	.
16GG\LL	4.b 4.f 4.d\	.	.
16D\	.	.	.
16G\	.	.	.
16D\	.	.	.
16GG\	.	.	.
16D\JJ	.	.	.
16FF#\LL	4.b 4.f#X 4.c#X\	.	.
16C#\	.	.	.
16F#\	.	.	.
16C#\	.	.	.
16FF#\	.	.	.
16C#\JJ	.	.	.
16FF#\LL	4.a#X 4.f# 4.c#\)	.	.
16C#\	.	.	.
16F#\	.	.	.
16C#\	.	.	.
16FF#\	.	.	.
16C#\JJ	.	.	.
=119	=119	=119	=119
16DD/LL	[>4.a [>4.f#X [>4.cn/	.	sf >
16AA/	.	.	]
16D/	.	.	.
16AA/	.	.	.
16DD/	.	.	.
16AA/JJ	.	.	.
16DD/LL	8a]L 8f#] 8c/]	.	.
16AA/	.	.	.
16D/	8g#/	.	.
16AA/	.	.	.
16DD/	8f#/J	.	.
16AA/JJ	.	.	.
16CC#/LL	[>4.cc#X [>4.a [>4.f# [>4.c#X^^/	.	.
16FF#/	.	.	.
16AA/	.	.	.
16C#/	.	.	.
16AA/	.	.	.
16FF#/JJ	.	.	.
16CC#/LL	8cc#]L 8a] 8f#] 8c#/]	.	>
16EE#X/	.	.	.
16GG#/	8g# 8e#X 8B/	.	.
16C#/	.	.	.
16GG#/	8a/J	.	.
16EE#/JJ	.	.	.
!!LO:LB:g=original
=120	=120	=120	=120
16FF#\LL	(8f#L 8c# 8A/	.	.
16F#\	.	.	.
16C#\	8f# 8c# 8A/	.	.
16F#\	.	.	.
16C#\	8g#/J)	.	.
16F#\JJ	.	.	.
16FF#\LL	(8a/L	.	.
16F#\	.	.	.
16C#\	8a 8f# 8c#/	.	.
16F#\	.	.	.
16C#\	8b/J)	.	.
16F#\JJ	.	.	.
16FF#\LL	(8cc#L 8a 8f#\	.	.
16F#\	.	.	.
16C#\	8cc# 8a 8f#\	.	.
16F#\	.	.	.
16C#\	8ff#\J)	.	.
16F#\JJ	.	.	.
16FF#\LL	(4dd 4b 4g# 4e#X\	.	sf >
16G#\	.	.	.
16C#\	.	.	]
16G#\	.	.	.
16C#\	8cc#\)	.	.
16G#\JJ	.	.	.
=121	=121	=121	=121
16FF#\LL	(8f#L 8c# 8A/	.	.
16F#\	.	.	.
16C#\	8f# 8c# 8A/	.	.
16F#\	.	.	.
16C#\	8g#/J)	.	.
16F#\JJ	.	.	.
16FF#\LL	(8a 8f# 8c#/L	.	.
16F#\	.	.	.
16C#\	8a 8f# 8c#/	.	.
16F#\	.	.	.
16C#\	8b/J)	.	.
16F#\JJ	.	.	.
16FF#\LL	(8cc#L 8a 8f#\	.	.
16F#\	.	.	.
16C#\	8cc# 8a 8f#\	.	.
16F#\	.	.	.
16C#\	8ff#\J)	.	.
16F#\JJ	.	.	.
16FF#\LL	(4dd 4b 4g# 4e#X^^\	.	sf >
16G#\	.	.	.
16C#\	.	.	]
16G#\	.	.	.
16C#\	8cc#\)	.	.
16G#\JJ	.	.	.
!!LO:LB:g=original
=122	=122	=122	=122
16EE\LL	8cc#L 8b-X 8gn\	.	f
16E\	.	.	.
16C#\	8cc# 8b- 8g\	.	.
16E\	.	.	.
16AA#X\	8ggn\J	.	.
16E\JJ	.	.	.
16EE\LL	4ff# 4b- 4g^^\	.	<
16E\	.	.	.
16C#\	.	.	.
16E\	.	.	.
16AA#\	8ee 8b- 8g\	.	.
16E\JJ	.	.	.
16FF#\LL	(8dd#XL 8ccn 8a\	.	.
16D#X\	.	.	.
16Cn\	8dd# 8cc 8a\	.	.
16D#\	.	.	.
16AA#\	8aa\J	.	[
16D#\JJ	.	.	.
16FF#\LL	4gg#X 4cc 4a\	.	.
16D#\	.	.	.
16C\	.	.	.
16D#\	.	.	.
16AA#\	8ff# 8cc 8a\)	.	.
16D#\JJ	.	.	.
=123	=123	=123	=123
!	!LO:TX:b:t=Piu stretto	!	!
16FFn/LL	(8gg#XL 8ffn 8ddn\	.	.
16Dn/	.	.	.
16BB/	8gg# 8ff 8dd\	.	.
16D/	.	.	.
16GG#/	8bb\J)	.	.
16D/JJ	.	.	.
16FF/LL	(8bbL 8gg# 8dd\	.	.
16Dn/	.	.	.
16BB/	8bb 8gg# 8dd\	.	.
16D/	.	.	.
16GG#/	8ddd\J)	.	.
16D/JJ	.	.	.
*	*8va	*	*
16EE/LL	(8dddL 8bb 8gg#\	.	.
16D/	.	.	.
16BB/	8ddd 8bb 8gg#\	.	.
16D/	.	.	.
16GG#/	8ggg#\J)	.	.
16D/JJ	.	.	.
16EE/LL	(8ggg#L 8ddd 8bb\	.	<
16D/	.	.	.
16BB/	8ggg# 8ddd 8bb\	.	.
16D/	.	.	.
16GG#/	8bbb\J)	.	.
16D/JJ	.	.	.
!!LO:LB:g=original
=124	=124	=124	=124
16DD#X/LL	8ggg#L 8ddd#X 8bb\	.	f
16D#X/	.	.	.
16BB/	8ggg# 8ddd# 8bb\	.	.
16D#/	.	.	.
16GG#/	8bbb\J	.	.
16D#/JJ	.	.	.
16DD#/LL	4aaa#X 4ddd# 4bb^^\	.	.
16D#/	.	.	.
16BB/	.	.	.
16D#/	.	.	.
16GG#/	8ggg# 8ddd# 8bb\	.	.
16D#/JJ	.	.	.
16DD#/LL	8gggn\L	.	.
16D#/	.	.	.
16C#/	8ccc# 8aa#X 8ggn\	.	.
16D#/	.	.	.
16AA#X/	8ddd#J 8aa# 8gg\	.	.
16D#/JJ	.	.	.
16DD#/LL	4eee 4aa# 4gg^^\	.	.
16D#/	.	.	.
16C#/	.	.	.
16D#/	.	.	.
16AA#/	8ddd# 8aa# 8gg\	.	.
16D#/JJ	.	.	.
=125	=125	=125	=125
16DD#X/LL	8fff#XL 8cccn 8aan\	.	p
16D#X/	.	.	.
16Cn/	8fff# 8ccc 8aa\	.	.
16D#/	.	.	.
16AAn/	8aaaJ 8ccc 8aa\	.	.
16D#/JJ	.	.	.
16DD#/LL	4ggg# 4ccc 4aa\	.	.
16D#/	.	.	.
16C/	.	.	.
16D#/	.	.	.
16AAn/	8fff# 8ccc 8aa\	.	.
16D#/JJ	.	.	.
*	*X8va	*	*
!	!LO:TX:a:t=loco	!	!
16DDn/LL	8fffn\L	.	.
16BB/	.	.	.
16GG#/	8bb 8ffn\	.	.
16BB/	.	.	.
16FFn/	8cccnJ 8ff\	.	.
16BB/JJ	.	.	.
16DD/LL	(4dddn 4ff^^\	.	.
16BB/	.	.	.
16GG#/	.	.	.
16BB/	.	.	.
16FF/	8ccc'\)	.	.
16BB/JJ	.	.	.
!!LO:LB:g=original
=126	=126	=126	=126
16FF#\LL	8ff#XL 8cc# 8a\	.	ff
16F#\	.	.	.
16C#\	(8ff# 8cc# 8a\	.	.
16F#\	.	.	.
16FF#\	8gg#J 8cc# 8a\)	.	.
16F#\JJ	.	.	.
16FF#\LL	8aaL 8cc# 8a'\	.	.
16F#\	.	.	.
16C#\	(8ff# 8cc# 8a\	.	.
16F#\	.	.	.
16FF#\	8gg#J 8cc# 8a\	.	.
16F#\JJ	.	.	.
16BBB/LL	8aaL 8cc# 8a\)	.	.
16BB/	.	.	.
16FF#/	(8dd 8b 8f#\	.	.
16BB/	.	.	.
16DD/	8eeJ 8b 8f#\	.	.
16BB/JJ	.	.	.
16BBB/LL	8ff#L 8b 8f#\	.	.
16BB/	.	.	.
16FF#/	8ee 8b 8f#\	.	.
16BB/	.	.	.
16DD/	8ddJ 8b 8f#\)	.	.
16BB/JJ	.	.	.
=127	=127	=127	=127
16CC#/LL	8cc#L 8a 8f#\	.	<
16C#/	.	.	.
16AA/	8aa 8cc# 8a'\	.	.
16C#/	.	.	.
16FF#/	8gg#J 8cc# 8a'\	.	.
16C#/JJ	.	.	.
16CC#/LL	8ggnL 8cc# 8a'\	.	.
16C#/	.	.	.
16AA/	8ff# 8cc# 8a'\	.	.
16C#/	.	.	.
16FF#/	8ffnJ 8cc# 8a'\	.	.
16C#/JJ	.	.	.
16CC#/LL	8eeL 8cc# 8a'\	.	>
16C#/	.	.	.
16GG#/	8dd#X 8a'\	.	.
16C#/	.	.	.
16EE#X/	8ddnJ 8a'\	.	.
16C#/JJ	.	.	.
16CC#/LL	8cc#L 8e#X'\	.	.
16C#/	.	.	.
16GG#/	8b 8e#^^\	.	.
16C#/	.	.	.
16EE#/	8g#J 8e#'\	.	]
16C#/JJ	.	.	.
!!LO:LB:g=original
=128	=128	=128	=128
!	!LO:TX:b:t=marcato	!	!
16FF#\LL	(8f#/L	.	.
16F#\	.	.	.
16C#\	8f# 8c# 8A/	.	.
16F#\	.	.	.
16C#\	8g#/J	.	.
16F#\JJ	.	.	.
16FF#\LL	8aL 8f# 8c#/	.	.
16F#\	.	.	.
16C#\	8a 8f# 8c#/	.	.
16F#\	.	.	.
16C#\	8b/J	.	.
16F#\JJ	.	.	.
16FF#\LL	8cc#L 8a 8f#\	.	.
16F#\	.	.	.
16C#\	8cc# 8a 8f#\	.	.
16F#\	.	.	.
16C#\	8ff#\J	.	.
16F#\JJ	.	.	.
16FF#\LL	4dd 4b 4g# 4e#X^^\	.	.
16G#\	.	.	.
16C#\	.	.	.
16G#\	.	.	.
16C#\	8cc#\)	.	.
16G#\JJ	.	.	.
=129	=129	=129	=129
16FF#\LL	(8f#L 8c# 8A/	.	.
16F#\	.	.	.
16C#\	8f# 8c# 8A/	.	.
16F#\	.	.	.
16C#\	8g#/J	.	.
16F#\JJ	.	.	.
16FF#\LL	8aL 8f# 8c#/	.	.
16F#\	.	.	.
16C#\	8a 8f# 8c#/	.	.
16F#\	.	.	.
16C#\	8b/J	.	.
16F#\JJ	.	.	.
16FF#\LL	8cc#L 8a 8f#\	.	.
16F#\	.	.	.
16C#\	8cc# 8a 8f#\	.	.
16F#\	.	.	.
16C#\	8ff#\J	.	.
16F#\JJ	.	.	.
16FF#\LL	4ff# 4cc# 4b^^\	.	.
16G#\	.	.	.
16C#\	.	.	.
16G#\	.	.	.
16C#\	8ee#X\)	.	.
16G#\JJ	.	.	.
!!LO:LB:g=original
=130	=130	=130	=130
!	!LO:TX:a:t=meno mosso e perdendosi	!	!
16FF#\LL	8f#L 8c# 8A#X/	.	p
16F#\	.	.	.
16C#\	8f# 8c# 8A#/	.	.
16F#\	.	.	.
16FF#\	8g#J 8c# 8A#/	.	.
16F#\JJ	.	.	.
16FF#\LL	8a#XL 8c# 8A#/	.	.
16F#\	.	.	.
16C#\	8f# 8c# 8A#/	.	.
16F#\	.	.	.
16FF#\	8g#J 8c# 8A#/	.	.
16F#\JJ	.	.	.
16FF#\LL	8a#L 8c# 8A#/	.	.
16F#\	.	.	.
16C#\	8f# 8c# 8A#/	.	.
16F#\	.	.	.
16FF#\	8g#J 8c# 8A#/	.	.
16F#\JJ	.	.	.
16FF#\LL	8a#L 8c# 8A#/	.	.
16F#\	.	.	.
16C#\	8f# 8c# 8A#/	.	.
16F#\	.	.	.
16FF#\	8g#J 8c# 8A#/	.	.
16F#\JJ	.	.	.
=131	=131	=131	=131
*8ba	*	*	*
*^	*	*	*
16FFF#/LL	8FFF#\L	2.a#X 2.f# 2.c# 2.A#X/	.	.
16FF#/	.	.	.	.
16AAA#X/	8AAA#\	.	.	.
16FF#/	.	.	.	.
16CC#/	8CC#\J	.	.	.
16FF#/JJ	.	.	.	.
16FFF#/LL	8FFF#\L	.	.	.
16FF#/	.	.	.	.
16AAA#/	8AAA#\	.	.	.
16FF#/	.	.	.	.
16CC#/	8CC#\J	.	.	.
16FF#/JJ	.	.	.	.
*X8ba	*	*	*	*
[>4.FFF#/	4.ryy	4.a# [>4.f# [>4.c# [>4.A#/	.	pp
4FFF#/]	4.ryy	4.a# 4.f#_> 4.c#_> 4.A#/_>	.	.
8FFF#/	.	.	.	.
*v	*v	*	*	*
=132	=132	=132	=132
2.FFF#;/	2.a#X 2.f#] 2.c#] 2.A#;/]	.	.
2.r	2.r	.	.
==	==	==	==
*-	*-	*-	*-
!!!system-decoration: [(s1,s2)]
!!!RDF**kern: > = above
!!!RDF**kern: < = below
!!!RDF**dynam: > = dim
!!!RDF**dynam: < = cres
!!!RDF**kern: i = editorial accidental
!!!ENC: Anastazja Marusiak
!!!END: 2022-01-31
!!!ENC: Leszek Kubiak
!!!END: 2022-02-22
!!!YEC: Copyright 2022 Narodowy Instytut Fryderyka Chopina (https://polishscores.org)
!!!YEM: License CC-BY-4.0 (https://creativecommons.org/licenses/by/4.0)
